( pcb2gcode 1.1.5 )

( This file uses 5 drill bit sizes. )
( Bit sizes: [0.635mm] [0.762mm] [0.813mm] [1.001mm] [1.016mm] )

       G94       (Millimeters per minute feed rate.)
G21       (Units == Millimeters.)
G90       (Absolute coordinates.)
S20000     (RPM spindle speed.)

G00 Z25.00000 (Retract)
T1
M5      (Spindle stop.)
M6      (Tool change.)
(MSG, Change tool bit to drill size 0.63500 mm)
M0      (Temporary machine stop.)
M3      (Spindle on clockwise.)

G81 R20.00000 Z-2.00000 F80.00000 X191.06234 Y4.67732
X186.64234 Y39.50032
X186.59134 Y157.48332
X186.51534 Y162.79232
X186.43934 Y96.01532
X185.14434 Y5.38832
X180.24134 Y4.95632
X165.25534 Y170.08132
X160.48034 Y119.68832
X159.49034 Y115.31932
X159.26134 Y125.32732
X159.21034 Y140.03332
X159.08334 Y136.22332
X158.80434 Y110.23932
X158.67734 Y121.92332
X158.39734 Y132.56632
X158.22034 Y128.90832
X157.73734 Y117.78332
X157.02634 Y112.80432
X148.31434 Y122.71032
X147.80634 Y130.43232
X147.50134 Y103.43232
X146.81534 Y107.85132
X146.51034 Y117.73232
X146.12934 Y132.94732
X145.82434 Y127.84132
X144.80834 Y105.48932
X144.32634 Y123.90432
X139.70334 Y141.98932
X138.68734 Y2.94932
X137.16334 Y95.71032
X134.54734 Y41.68432
X134.39434 Y1.93332
X133.88634 Y35.69032
X131.24534 Y141.45632
X129.94934 Y92.12932
X128.85734 Y1.93332
X127.68934 Y138.96632
X106.15034 Y178.08232
X87.43034 Y118.36732
X87.12534 Y3.28032
X86.61734 Y80.34332
X83.03634 Y167.05932
X82.42634 Y36.65532
X81.96934 Y44.80932
X80.92734 Y3.02632
X80.67334 Y116.76732
X80.29234 Y81.96932
X76.58434 Y3.20332
X76.55934 Y80.29232
X74.98434 Y118.08832
X66.50034 Y26.49532
X65.07834 Y174.45032
X61.80134 Y89.64032
X61.19234 Y141.07532
X28.78134 Y3.43232
X26.26734 Y95.83732
X26.03834 Y165.23032
X25.86034 Y155.52732
X25.45434 Y36.37632
X24.33634 Y3.96532
X19.05334 Y3.55932
X17.22434 Y147.88232
X13.77034 Y163.14732
X13.10934 Y173.66332
X5.82034 Y92.20532
X5.56634 Y34.42032

G00 Z25.00000 (Retract)
T2
M5      (Spindle stop.)
M6      (Tool change.)
(MSG, Change tool bit to drill size 0.76200 mm)
M0      (Temporary machine stop.)
M3      (Spindle on clockwise.)

G81 R20.00000 Z-2.00000 F80.00000 X188.46134 Y13.29232
X188.33434 Y191.04132
X188.30834 Y133.71432
X188.11534 Y74.14632
X186.72934 Y13.29232
X186.60234 Y191.04132
X186.57634 Y133.71432
X185.57534 Y74.14632
X185.02434 Y13.29232
X184.89734 Y191.04132
X184.87234 Y133.71432
X183.23634 Y13.26432
X183.10934 Y191.01432
X183.08434 Y133.68632
X183.03534 Y74.14632
X180.49534 Y74.14632
X136.28934 Y185.12332
X136.21334 Y64.14332
X136.01034 Y125.48432
X135.65434 Y5.74832
X134.55734 Y185.12332
X134.48134 Y64.14332
X134.27834 Y125.48432
X133.92234 Y5.74832
X132.85334 Y185.12332
X132.77634 Y64.14332
X132.57334 Y125.48432
X132.21834 Y5.74832
X131.06434 Y185.09532
X130.98834 Y64.11532
X130.78534 Y125.45632
X130.42934 Y5.72132
X112.90634 Y89.56332
X110.36634 Y89.53832
X107.57234 Y89.53832
X100.25734 Y89.64032
X97.71734 Y89.61432
X94.92334 Y89.61432
X87.45534 Y89.58932
X84.91534 Y89.56332
X84.90534 Y190.38132
X84.34634 Y130.43732
X84.24534 Y14.15632
X83.76234 Y72.67732
X83.17334 Y190.38132
X82.61434 Y130.43732
X82.51234 Y14.15632
X82.12134 Y89.56332
X82.03034 Y72.67732
X81.46834 Y190.38132
X80.91034 Y130.43732
X80.80834 Y14.15632
X80.32534 Y72.67732
X79.68034 Y190.35332
X79.12134 Y130.40932
X79.02034 Y14.12832
X78.53734 Y72.65032
X28.21234 Y71.35732
X27.83134 Y190.83832
X27.78034 Y12.83532
X27.57734 Y132.16432
X26.48034 Y71.35732
X26.09934 Y190.83832
X26.04834 Y12.83532
X25.84534 Y132.16432
X24.77634 Y71.35732
X24.39534 Y190.83832
X24.34434 Y12.83532
X24.14134 Y132.16432
X22.98734 Y71.32932
X22.60634 Y190.81032
X22.55634 Y12.80732
X22.35234 Y132.13632

G00 Z25.00000 (Retract)
T3
M5      (Spindle stop.)
M6      (Tool change.)
(MSG, Change tool bit to drill size 0.81300 mm)
M0      (Temporary machine stop.)
M3      (Spindle on clockwise.)

G81 R20.00000 Z-2.00000 F80.00000 X165.48434 Y130.71132
X165.38234 Y12.27132
X165.33234 Y71.45332
X165.28134 Y189.74132
X162.94434 Y130.71132
X162.84234 Y12.27132
X162.79234 Y71.45332
X162.74134 Y189.74132
X123.57434 Y125.35232
X123.57434 Y122.81232
X123.57434 Y120.27232
X121.03434 Y125.35232
X121.03434 Y122.81232
X121.03434 Y120.27232
X113.64334 Y127.81632
X113.59234 Y68.55832
X113.46534 Y187.09932
X113.41434 Y9.24932
X111.10334 Y127.81632
X111.05234 Y68.55832
X110.92534 Y187.09932
X110.87434 Y9.24932
X61.77634 Y128.62932
X61.67434 Y69.57432
X61.67434 Y10.23932
X61.44634 Y187.70932
X59.23634 Y128.62932
X59.13434 Y69.57432
X59.13434 Y10.23932
X58.90634 Y187.70932
X5.89634 Y129.84832
X5.89634 Y70.51332
X5.82034 Y189.25832
X5.48934 Y11.17932
X3.35634 Y129.84832
X3.35634 Y70.51332
X3.28034 Y189.25832
X2.94934 Y11.17932

G00 Z25.00000 (Retract)
T4
M5      (Spindle stop.)
M6      (Tool change.)
(MSG, Change tool bit to drill size 1.00100 mm)
M0      (Temporary machine stop.)
M3      (Spindle on clockwise.)

G81 R20.00000 Z-2.00000 F80.00000 X193.12634 Y8.81732
X192.87234 Y127.33332
X192.61834 Y185.09332
X192.61834 Y68.76132
X186.69334 Y33.27732
X186.69334 Y23.11732
X186.64234 Y152.88632
X186.64234 Y142.72632
X186.59134 Y177.27032
X186.59134 Y167.11032
X186.54134 Y92.73832
X186.54134 Y82.57832
X178.12634 Y8.81732
X177.87234 Y127.33332
X177.61834 Y185.09332
X177.61834 Y68.76132
X165.56034 Y125.35232
X165.56034 Y115.19232
X165.35734 Y28.70532
X165.35734 Y18.54532
X165.33234 Y65.48432
X165.28134 Y184.40732
X165.28134 Y174.24732
X155.65434 Y163.27432
X155.65434 Y153.11432
X155.17234 Y65.48432
X152.50534 Y163.24932
X152.50534 Y153.08932
X149.40634 Y163.24932
X149.40634 Y153.08932
X146.28234 Y163.19832
X146.28234 Y153.03832
X144.27534 Y138.50932
X143.13234 Y163.19832
X143.13234 Y153.03832
X141.31034 Y70.28532
X141.31034 Y11.86532
X140.80234 Y130.22932
X140.29434 Y190.68132
X140.00834 Y163.19832
X140.00834 Y153.03832
X136.83334 Y163.19832
X136.83334 Y153.03832
X134.49634 Y56.26432
X134.49634 Y46.10432
X134.11534 Y196.26932
X134.11534 Y138.50932
X133.91234 Y30.78832
X133.91234 Y20.62832
X133.63234 Y163.19832
X133.63234 Y153.03832
X126.90134 Y163.50332
X126.90134 Y153.34332
X126.31034 Y70.28532
X126.31034 Y11.86532
X125.80234 Y130.22932
X125.29434 Y190.68132
X123.95534 Y196.26932
X123.59934 Y163.45232
X123.59934 Y153.29232
X120.29734 Y163.37632
X120.29734 Y153.21632
X118.54534 Y78.69232
X118.54534 Y68.53232
X117.60534 Y127.96832
X117.60534 Y117.80832
X117.02134 Y163.40132
X117.02134 Y153.24132
X115.11634 Y25.83532
X115.11634 Y15.67532
X113.64334 Y163.50332
X113.64334 Y153.34332
X110.36634 Y163.50332
X110.36634 Y153.34332
X107.06434 Y163.50332
X107.06434 Y153.34332
X104.06734 Y190.96032
X104.06734 Y180.80032
X103.88934 Y163.40132
X103.88934 Y153.24132
X92.76434 Y139.55132
X89.06234 Y183.36632
X88.52934 Y124.36132
X88.47834 Y66.42432
X88.42734 Y6.73432
X83.16334 Y179.96232
X83.16334 Y169.80232
X82.60434 Y139.55132
X82.42634 Y31.60132
X82.42634 Y21.44132
X81.99434 Y58.77932
X81.99434 Y48.61932
X74.06234 Y183.36632
X73.52934 Y124.36132
X73.47834 Y66.42432
X73.42734 Y6.73432
X66.50034 Y20.60232
X66.50034 Y10.44232
X65.20534 Y187.70932
X65.20534 Y177.54932
X61.62334 Y85.62632
X61.62334 Y75.46632
X61.34434 Y121.69432
X61.34434 Y111.53432
X33.05534 Y65.66232
X32.03934 Y185.04232
X32.03934 Y126.11432
X32.03934 Y6.73432
X26.47034 Y92.38332
X26.47034 Y82.22332
X26.08934 Y32.38832
X26.08934 Y22.22832
X26.03834 Y178.43832
X26.03834 Y168.27832
X25.78434 Y151.76832
X25.78434 Y141.60832
X18.05534 Y65.66232
X17.03934 Y185.04232
X17.03934 Y126.11432
X17.03934 Y6.73432
X14.60834 Y158.04232
X14.60834 Y147.88232
X9.98534 Y189.25832
X9.98534 Y179.09832
X8.48734 Y160.71632
X8.48734 Y145.71632
X5.84534 Y123.34532
X5.84534 Y113.18532
X5.64234 Y87.17632
X5.64234 Y77.01632
X5.43934 Y28.65432
X5.43934 Y18.49432

G00 Z25.00000 (Retract)
T5
M5      (Spindle stop.)
M6      (Tool change.)
(MSG, Change tool bit to drill size 1.01600 mm)
M0      (Temporary machine stop.)
M3      (Spindle on clockwise.)

G81 R20.00000 Z-2.00000 F80.00000 X154.05434 Y143.13232
X154.05434 Y140.59232
X154.05434 Y138.05232
X154.05434 Y135.51232
X154.05434 Y132.97232
X154.05434 Y130.43232
X154.05434 Y127.89232
X154.05434 Y125.35232
X154.05434 Y122.81232
X154.05434 Y120.27232
X154.05434 Y117.73232
X154.05434 Y115.19232
X154.05434 Y112.65232
X154.05434 Y110.11232
X154.05434 Y107.57232
X154.05434 Y105.03232
X154.05434 Y102.49232
X154.05434 Y99.95232
X151.51434 Y143.13232
X151.51434 Y140.59232
X151.51434 Y138.05232
X151.51434 Y135.51232
X151.51434 Y132.97232
X151.51434 Y130.43232
X151.51434 Y127.89232
X151.51434 Y125.35232
X151.51434 Y122.81232
X151.51434 Y120.27232
X151.51434 Y117.73232
X151.51434 Y115.19232
X151.51434 Y112.65232
X151.51434 Y110.11232
X151.51434 Y107.57232
X151.51434 Y105.03232
X151.51434 Y102.49232
X151.51434 Y99.95232
X148.97434 Y148.21232
X146.43434 Y148.21232
X143.89434 Y148.21232
X143.89434 Y99.95232
X141.35434 Y148.21232
X141.35434 Y99.95232
X138.81434 Y148.21232
X138.81434 Y99.95232
X136.27434 Y148.21232
X136.27434 Y99.95232
X133.73434 Y148.21232
X133.73434 Y99.95232
X131.19434 Y148.21232
X131.19434 Y99.95232
X128.65434 Y99.95232
X126.11434 Y148.21232
X126.11434 Y99.95232
X123.57434 Y148.21232
X121.03434 Y148.21232
X121.03434 Y99.95232
X118.49434 Y148.21232
X118.49434 Y99.95232
X115.95434 Y148.21232
X115.95434 Y99.95232
X113.41434 Y148.21232
X113.41434 Y99.95232
X110.87434 Y148.21232
X110.87434 Y99.95232
X108.33434 Y148.21232
X108.33434 Y99.95232
X105.79434 Y99.95232
X103.25434 Y148.21232
X103.25434 Y99.95232
X100.71434 Y148.21232
X99.19034 Y99.95232
X98.17434 Y148.21232
X96.65034 Y99.95232
X95.63434 Y148.21232
X94.11034 Y99.95232
X93.09434 Y148.21232
X91.57034 Y99.95232
X90.55434 Y148.21232
X89.03034 Y99.95232
X88.01434 Y148.21232
X86.49034 Y99.95232
X85.47434 Y148.21232
X83.95034 Y99.95232
X81.41034 Y99.95232
X78.87034 Y99.95232
X76.33034 Y99.95232
X13.21134 Y169.29432
X6.70934 Y169.29432
X3.94034 Y171.83432
X3.94034 Y169.29432
X3.94034 Y165.73832
X3.94034 Y163.19832
X3.94034 Y160.65832
X3.94034 Y158.11832
X3.94034 Y155.57832
X3.94034 Y153.03832
X3.94034 Y150.49832
X3.91534 Y147.72932

G00 Z25.00000 (All done -- retract)

M9      (Coolant off.)
M2      (Program end.)

