( pcb2gcode 1.1.5 )
      
G94 ( Millimeters per minute feed rate. )
G21 ( Units == Millimeters. )

G90 ( Absolute coordinates. )
S20000 ( RPM spindle speed. )
F80.00000 ( Feedrate. )
G64 P0.05080 ( set maximum deviation from commanded toolpath )

M3 ( Spindle on clockwise. )
G04 P0 ( dwell for no time -- G64 should not smooth over this point )
G00 Z20.00000 ( retract )

G00 X215.87473 Y198.58053 ( rapid move to begin. )
G01 Z0.00000 F40.00000 ( plunge. )
G04 P0 ( dwell for no time -- G64 should not smooth over this point )
F80.00000
X215.87473 Y198.58053
X215.87473 Y198.58053
X215.87473 Y198.58053
X215.87473 Y198.55513
X215.87473 Y198.52973
X215.87473 Y198.50433
X215.87473 Y198.47893
X215.87473 Y198.45353
X215.87473 Y198.42813
X215.87473 Y198.40273
X215.87473 Y198.37733
X215.87473 Y198.35193
X215.87473 Y198.32653
X215.87473 Y198.30113
X215.87473 Y198.27573
X215.87473 Y198.25033
X215.87473 Y198.22493
X215.87473 Y198.19953
X215.87473 Y198.17413
X215.87473 Y198.14873
X215.87473 Y198.12333
X215.87473 Y198.09793
X215.87473 Y198.07253
X215.87473 Y198.04713
X215.87473 Y198.02173
X215.87473 Y197.99633
X215.87473 Y197.97093
X215.87473 Y197.94553
X215.87473 Y197.92013
X215.87473 Y197.89473
X215.87473 Y197.86933
X215.87473 Y197.84393
X215.87473 Y197.81853
X215.87473 Y197.79313
X215.87473 Y197.76773
X215.87473 Y197.74233
X215.87473 Y197.71693
X215.87473 Y197.69153
X215.87473 Y197.66613
X215.87473 Y197.64073
X215.87473 Y197.61533
X215.87473 Y197.58993
X215.87473 Y197.56453
X215.87473 Y197.53913
X215.87473 Y197.51373
X215.87473 Y197.48833
X215.87473 Y197.46293
X215.87473 Y197.43753
X215.87473 Y197.41213
X215.87473 Y197.38673
X215.87473 Y197.36133
X215.87473 Y197.33593
X215.87473 Y197.31053
X215.87473 Y197.28513
X215.87473 Y197.25973
X215.87473 Y197.23433
X215.87473 Y197.20893
X215.87473 Y197.18353
X215.87473 Y197.15813
X215.87473 Y197.13273
X215.87473 Y197.10733
X215.87473 Y197.08193
X215.87473 Y197.05653
X215.87473 Y197.03113
X215.87473 Y197.00573
X215.87473 Y196.98033
X215.87473 Y196.95493
X215.87473 Y196.92953
X215.87473 Y196.90413
X215.87473 Y196.87873
X215.87473 Y196.85333
X215.87473 Y196.82793
X215.87473 Y196.80253
X215.87473 Y196.77713
X215.87473 Y196.75173
X215.87473 Y196.72633
X215.87473 Y196.70093
X215.87473 Y196.67553
X215.87473 Y196.65013
X215.87473 Y196.62473
X215.87473 Y196.59933
X215.87473 Y196.57393
X215.87473 Y196.54853
X215.87473 Y196.52313
X215.87473 Y196.49773
X215.87473 Y196.47233
X215.87473 Y196.44693
X215.87473 Y196.42153
X215.87473 Y196.39613
X215.87473 Y196.37073
X215.87473 Y196.34533
X215.87473 Y196.31993
X215.87473 Y196.29453
X215.87473 Y196.26913
X215.87473 Y196.24373
X215.87473 Y196.21833
X215.87473 Y196.19293
X215.87473 Y196.16753
X215.87473 Y196.14213
X215.87473 Y196.11673
X215.87473 Y196.09133
X215.87473 Y196.06593
X215.87473 Y196.04053
X215.87473 Y196.01513
X215.87473 Y195.98973
X215.87473 Y195.96433
X215.87473 Y195.93893
X215.87473 Y195.91353
X215.87473 Y195.88813
X215.87473 Y195.86273
X215.87473 Y195.83733
X215.87473 Y195.81193
X215.87473 Y195.78653
X215.87473 Y195.76113
X215.87473 Y195.73573
X215.87473 Y195.71033
X215.87473 Y195.68493
X215.87473 Y195.65953
X215.87473 Y195.63413
X215.87473 Y195.60873
X215.87473 Y195.58333
X215.87473 Y195.55793
X215.87473 Y195.53253
X215.87473 Y195.50713
X215.87473 Y195.48173
X215.87473 Y195.45633
X215.87473 Y195.43093
X215.87473 Y195.40553
X215.87473 Y195.38013
X215.87473 Y195.35473
X215.87473 Y195.32933
X215.87473 Y195.30393
X215.87473 Y195.27853
X215.87473 Y195.25313
X215.87473 Y195.22773
X215.87473 Y195.20233
X215.87473 Y195.17693
X215.87473 Y195.15153
X215.87473 Y195.12613
X215.87473 Y195.10073
X215.87473 Y195.07533
X215.87473 Y195.04993
X215.87473 Y195.02453
X215.87473 Y194.99913
X215.87473 Y194.97373
X215.87473 Y194.94833
X215.87473 Y194.92293
X215.87473 Y194.89753
X215.87473 Y194.87213
X215.87473 Y194.84673
X215.87473 Y194.82133
X215.87473 Y194.79593
X215.87473 Y194.77053
X215.87473 Y194.74513
X215.87473 Y194.71973
X215.87473 Y194.69433
X215.87473 Y194.66893
X215.87473 Y194.64353
X215.87473 Y194.61813
X215.87473 Y194.59273
X215.87473 Y194.56733
X215.87473 Y194.54193
X215.87473 Y194.51653
X215.87473 Y194.49113
X215.87473 Y194.46573
X215.87473 Y194.44033
X215.87473 Y194.41493
X215.87473 Y194.38953
X215.87473 Y194.36413
X215.87473 Y194.33873
X215.87473 Y194.31333
X215.87473 Y194.28793
X215.87473 Y194.26253
X215.87473 Y194.23713
X215.87473 Y194.21173
X215.87473 Y194.18633
X215.87473 Y194.16093
X215.87473 Y194.13553
X215.87473 Y194.11013
X215.87473 Y194.08473
X215.87473 Y194.05933
X215.87473 Y194.03393
X215.87473 Y194.00853
X215.87473 Y193.98313
X215.87473 Y193.95773
X215.87473 Y193.93233
X215.87473 Y193.90693
X215.87473 Y193.88153
X215.87473 Y193.85613
X215.87473 Y193.83073
X215.87473 Y193.80533
X215.87473 Y193.77993
X215.87473 Y193.75453
X215.87473 Y193.72913
X215.87473 Y193.70373
X215.87473 Y193.67833
X215.87473 Y193.65293
X215.87473 Y193.62753
X215.87473 Y193.60213
X215.87473 Y193.57673
X215.87473 Y193.55133
X215.87473 Y193.52593
X215.87473 Y193.50053
X215.87473 Y193.47513
X215.87473 Y193.44973
X215.87473 Y193.42433
X215.87473 Y193.39893
X215.87473 Y193.37353
X215.87473 Y193.34813
X215.87473 Y193.32273
X215.87473 Y193.29733
X215.87473 Y193.27193
X215.87473 Y193.24653
X215.87473 Y193.22113
X215.87473 Y193.19573
X215.87473 Y193.17033
X215.87473 Y193.14493
X215.87473 Y193.11953
X215.87473 Y193.09413
X215.87473 Y193.06873
X215.87473 Y193.04333
X215.87473 Y193.01793
X215.87473 Y192.99253
X215.87473 Y192.96713
X215.87473 Y192.94173
X215.87473 Y192.91633
X215.87473 Y192.89093
X215.87473 Y192.86553
X215.87473 Y192.84013
X215.87473 Y192.81473
X215.87473 Y192.78933
X215.87473 Y192.76393
X215.87473 Y192.73853
X215.87473 Y192.71313
X215.87473 Y192.68773
X215.87473 Y192.66233
X215.87473 Y192.63693
X215.87473 Y192.61153
X215.87473 Y192.58613
X215.87473 Y192.56073
X215.87473 Y192.53533
X215.87473 Y192.50993
X215.87473 Y192.48453
X215.87473 Y192.45913
X215.87473 Y192.43373
X215.87473 Y192.40833
X215.87473 Y192.38293
X215.87473 Y192.35753
X215.87473 Y192.33213
X215.87473 Y192.30673
X215.87473 Y192.28133
X215.87473 Y192.25593
X215.87473 Y192.23053
X215.87473 Y192.20513
X215.87473 Y192.17973
X215.87473 Y192.15433
X215.87473 Y192.12893
X215.87473 Y192.10353
X215.87473 Y192.07813
X215.87473 Y192.05273
X215.87473 Y192.02733
X215.87473 Y192.00193
X215.87473 Y191.97653
X215.87473 Y191.95113
X215.87473 Y191.92573
X215.87473 Y191.90033
X215.87473 Y191.87493
X215.87473 Y191.84953
X215.87473 Y191.82413
X215.87473 Y191.79873
X215.87473 Y191.77333
X215.87473 Y191.74793
X215.87473 Y191.72253
X215.87473 Y191.69713
X215.87473 Y191.67173
X215.87473 Y191.64633
X215.87473 Y191.62093
X215.87473 Y191.59553
X215.87473 Y191.57013
X215.87473 Y191.54473
X215.87473 Y191.51933
X215.87473 Y191.49393
X215.87473 Y191.46853
X215.87473 Y191.44313
X215.87473 Y191.41773
X215.87473 Y191.39233
X215.87473 Y191.36693
X215.87473 Y191.34153
X215.87473 Y191.31613
X215.87473 Y191.29073
X215.87473 Y191.26533
X215.87473 Y191.23993
X215.87473 Y191.21453
X215.87473 Y191.18913
X215.87473 Y191.16373
X215.87473 Y191.13833
X215.87473 Y191.11293
X215.87473 Y191.08753
X215.87473 Y191.06213
X215.87473 Y191.03673
X215.87473 Y191.01133
X215.87473 Y190.98593
X215.87473 Y190.96053
X215.87473 Y190.93513
X215.87473 Y190.90973
X215.87473 Y190.88433
X215.87473 Y190.85893
X215.87473 Y190.83353
X215.87473 Y190.80813
X215.87473 Y190.78273
X215.87473 Y190.75733
X215.87473 Y190.73193
X215.87473 Y190.70653
X215.87473 Y190.68113
X215.87473 Y190.65573
X215.87473 Y190.63033
X215.87473 Y190.60493
X215.87473 Y190.57953
X215.87473 Y190.55413
X215.87473 Y190.52873
X215.87473 Y190.50333
X215.87473 Y190.47793
X215.87473 Y190.45253
X215.87473 Y190.42713
X215.87473 Y190.40173
X215.87473 Y190.37633
X215.87473 Y190.35093
X215.87473 Y190.32553
X215.87473 Y190.30013
X215.87473 Y190.27473
X215.87473 Y190.24933
X215.87473 Y190.22393
X215.87473 Y190.19853
X215.87473 Y190.17313
X215.87473 Y190.14773
X215.87473 Y190.12233
X215.87473 Y190.09693
X215.87473 Y190.07153
X215.87473 Y190.04613
X215.87473 Y190.02073
X215.87473 Y189.99533
X215.87473 Y189.96993
X215.87473 Y189.94453
X215.87473 Y189.91913
X215.87473 Y189.89373
X215.87473 Y189.86833
X215.87473 Y189.84293
X215.87473 Y189.81753
X215.87473 Y189.79213
X215.87473 Y189.76673
X215.87473 Y189.74133
X215.87473 Y189.71593
X215.87473 Y189.69053
X215.87473 Y189.66513
X215.87473 Y189.63973
X215.87473 Y189.61433
X215.87473 Y189.58893
X215.87473 Y189.56353
X215.87473 Y189.53813
X215.87473 Y189.51273
X215.87473 Y189.48733
X215.87473 Y189.46193
X215.87473 Y189.43653
X215.87473 Y189.41113
X215.87473 Y189.38573
X215.87473 Y189.36033
X215.87473 Y189.33493
X215.87473 Y189.30953
X215.87473 Y189.28413
X215.87473 Y189.25873
X215.87473 Y189.23333
X215.87473 Y189.20793
X215.87473 Y189.18253
X215.87473 Y189.15713
X215.87473 Y189.13173
X215.87473 Y189.10633
X215.87473 Y189.08093
X215.87473 Y189.05553
X215.87473 Y189.03013
X215.87473 Y189.00473
X215.87473 Y188.97933
X215.87473 Y188.95393
X215.87473 Y188.92853
X215.87473 Y188.90313
X215.87473 Y188.87773
X215.87473 Y188.85233
X215.87473 Y188.82693
X215.87473 Y188.80153
X215.87473 Y188.77613
X215.87473 Y188.75073
X215.87473 Y188.72533
X215.87473 Y188.69993
X215.87473 Y188.67453
X215.87473 Y188.64913
X215.87473 Y188.62373
X215.87473 Y188.59833
X215.87473 Y188.57293
X215.87473 Y188.54753
X215.87473 Y188.52213
X215.87473 Y188.49673
X215.87473 Y188.47133
X215.87473 Y188.44593
X215.87473 Y188.42053
X215.87473 Y188.39513
X215.87473 Y188.36973
X215.87473 Y188.34433
X215.87473 Y188.31893
X215.87473 Y188.29353
X215.87473 Y188.26813
X215.87473 Y188.24273
X215.87473 Y188.21733
X215.87473 Y188.19193
X215.87473 Y188.16653
X215.87473 Y188.14113
X215.87473 Y188.11573
X215.87473 Y188.09033
X215.87473 Y188.06493
X215.87473 Y188.03953
X215.87473 Y188.01413
X215.87473 Y187.98873
X215.87473 Y187.96333
X215.87473 Y187.93793
X215.87473 Y187.91253
X215.87473 Y187.88713
X215.87473 Y187.86173
X215.87473 Y187.83633
X215.87473 Y187.81093
X215.87473 Y187.78553
X215.87473 Y187.76013
X215.87473 Y187.73473
X215.87473 Y187.70933
X215.87473 Y187.68393
X215.87473 Y187.65853
X215.87473 Y187.63313
X215.87473 Y187.60773
X215.87473 Y187.58233
X215.87473 Y187.55693
X215.87473 Y187.53153
X215.87473 Y187.50613
X215.87473 Y187.48073
X215.87473 Y187.45533
X215.87473 Y187.42993
X215.87473 Y187.40453
X215.87473 Y187.37913
X215.87473 Y187.35373
X215.87473 Y187.32833
X215.87473 Y187.30293
X215.87473 Y187.27753
X215.87473 Y187.25213
X215.87473 Y187.22673
X215.87473 Y187.20133
X215.87473 Y187.17593
X215.87473 Y187.15053
X215.87473 Y187.12513
X215.87473 Y187.09973
X215.87473 Y187.07433
X215.87473 Y187.04893
X215.87473 Y187.02353
X215.87473 Y186.99813
X215.87473 Y186.97273
X215.87473 Y186.94733
X215.87473 Y186.92193
X215.87473 Y186.89653
X215.87473 Y186.87113
X215.87473 Y186.84573
X215.87473 Y186.82033
X215.87473 Y186.79493
X215.87473 Y186.76953
X215.87473 Y186.74413
X215.87473 Y186.71873
X215.87473 Y186.69333
X215.87473 Y186.66793
X215.87473 Y186.64253
X215.87473 Y186.61713
X215.87473 Y186.59173
X215.87473 Y186.56633
X215.87473 Y186.54093
X215.87473 Y186.51553
X215.87473 Y186.49013
X215.87473 Y186.46473
X215.87473 Y186.43933
X215.87473 Y186.41393
X215.87473 Y186.38853
X215.87473 Y186.36313
X215.87473 Y186.33773
X215.87473 Y186.31233
X215.87473 Y186.28693
X215.87473 Y186.26153
X215.87473 Y186.23613
X215.87473 Y186.21073
X215.87473 Y186.18533
X215.87473 Y186.15993
X215.87473 Y186.13453
X215.87473 Y186.10913
X215.87473 Y186.08373
X215.87473 Y186.05833
X215.87473 Y186.03293
X215.87473 Y186.00753
X215.87473 Y185.98213
X215.87473 Y185.95673
X215.87473 Y185.93133
X215.87473 Y185.90593
X215.87473 Y185.88053
X215.87473 Y185.85513
X215.87473 Y185.82973
X215.87473 Y185.80433
X215.87473 Y185.77893
X215.87473 Y185.75353
X215.87473 Y185.72813
X215.87473 Y185.70273
X215.87473 Y185.67733
X215.87473 Y185.65193
X215.87473 Y185.62653
X215.87473 Y185.60113
X215.87473 Y185.57573
X215.87473 Y185.55033
X215.87473 Y185.52493
X215.87473 Y185.49953
X215.87473 Y185.47413
X215.87473 Y185.44873
X215.87473 Y185.42333
X215.87473 Y185.39793
X215.87473 Y185.37253
X215.87473 Y185.34713
X215.87473 Y185.32173
X215.87473 Y185.29633
X215.87473 Y185.27093
X215.87473 Y185.24553
X215.87473 Y185.22013
X215.87473 Y185.19473
X215.87473 Y185.16933
X215.87473 Y185.14393
X215.87473 Y185.11853
X215.87473 Y185.09313
X215.87473 Y185.06773
X215.87473 Y185.04233
X215.87473 Y185.01693
X215.87473 Y184.99153
X215.87473 Y184.96613
X215.87473 Y184.94073
X215.87473 Y184.91533
X215.87473 Y184.88993
X215.87473 Y184.86453
X215.87473 Y184.83913
X215.87473 Y184.81373
X215.87473 Y184.78833
X215.87473 Y184.76293
X215.87473 Y184.73753
X215.87473 Y184.71213
X215.87473 Y184.68673
X215.87473 Y184.66133
X215.87473 Y184.63593
X215.87473 Y184.61053
X215.87473 Y184.58513
X215.87473 Y184.55973
X215.87473 Y184.53433
X215.87473 Y184.50893
X215.87473 Y184.48353
X215.87473 Y184.45813
X215.87473 Y184.43273
X215.87473 Y184.40733
X215.87473 Y184.38193
X215.87473 Y184.35653
X215.87473 Y184.33113
X215.87473 Y184.30573
X215.87473 Y184.28033
X215.87473 Y184.25493
X215.87473 Y184.22953
X215.87473 Y184.20413
X215.87473 Y184.17873
X215.87473 Y184.15333
X215.87473 Y184.12793
X215.87473 Y184.10253
X215.87473 Y184.07713
X215.87473 Y184.05173
X215.87473 Y184.02633
X215.87473 Y184.00093
X215.87473 Y183.97553
X215.87473 Y183.95013
X215.87473 Y183.92473
X215.87473 Y183.89933
X215.87473 Y183.87393
X215.87473 Y183.84853
X215.87473 Y183.82313
X215.87473 Y183.79773
X215.87473 Y183.77233
X215.87473 Y183.74693
X215.87473 Y183.72153
X215.87473 Y183.69613
X215.87473 Y183.67073
X215.87473 Y183.64533
X215.87473 Y183.61993
X215.87473 Y183.59453
X215.87473 Y183.56913
X215.87473 Y183.54373
X215.87473 Y183.51833
X215.87473 Y183.49293
X215.87473 Y183.46753
X215.87473 Y183.44213
X215.87473 Y183.41673
X215.87473 Y183.39133
X215.87473 Y183.36593
X215.87473 Y183.34053
X215.87473 Y183.31513
X215.87473 Y183.28973
X215.87473 Y183.26433
X215.87473 Y183.23893
X215.87473 Y183.21353
X215.87473 Y183.18813
X215.87473 Y183.16273
X215.87473 Y183.13733
X215.87473 Y183.11193
X215.87473 Y183.08653
X215.87473 Y183.06113
X215.87473 Y183.03573
X215.87473 Y183.01033
X215.87473 Y182.98493
X215.87473 Y182.95953
X215.87473 Y182.93413
X215.87473 Y182.90873
X215.87473 Y182.88333
X215.87473 Y182.85793
X215.87473 Y182.83253
X215.87473 Y182.80713
X215.87473 Y182.78173
X215.87473 Y182.75633
X215.87473 Y182.73093
X215.87473 Y182.70553
X215.87473 Y182.68013
X215.87473 Y182.65473
X215.87473 Y182.62933
X215.87473 Y182.60393
X215.87473 Y182.57853
X215.87473 Y182.55313
X215.87473 Y182.52773
X215.87473 Y182.50233
X215.87473 Y182.47693
X215.87473 Y182.45153
X215.87473 Y182.42613
X215.87473 Y182.40073
X215.87473 Y182.37533
X215.87473 Y182.34993
X215.87473 Y182.32453
X215.87473 Y182.29913
X215.87473 Y182.27373
X215.87473 Y182.24833
X215.87473 Y182.22293
X215.87473 Y182.19753
X215.87473 Y182.17213
X215.87473 Y182.14673
X215.87473 Y182.12133
X215.87473 Y182.09593
X215.87473 Y182.07053
X215.87473 Y182.04513
X215.87473 Y182.01973
X215.87473 Y181.99433
X215.87473 Y181.96893
X215.87473 Y181.94353
X215.87473 Y181.91813
X215.87473 Y181.89273
X215.87473 Y181.86733
X215.87473 Y181.84193
X215.87473 Y181.81653
X215.87473 Y181.79113
X215.87473 Y181.76573
X215.87473 Y181.74033
X215.87473 Y181.71493
X215.87473 Y181.68953
X215.87473 Y181.66413
X215.87473 Y181.63873
X215.87473 Y181.61333
X215.87473 Y181.58793
X215.87473 Y181.56253
X215.87473 Y181.53713
X215.87473 Y181.51173
X215.87473 Y181.48633
X215.87473 Y181.46093
X215.87473 Y181.43553
X215.87473 Y181.41013
X215.87473 Y181.38473
X215.87473 Y181.35933
X215.87473 Y181.33393
X215.87473 Y181.30853
X215.87473 Y181.28313
X215.87473 Y181.25773
X215.87473 Y181.23233
X215.87473 Y181.20693
X215.87473 Y181.18153
X215.87473 Y181.15613
X215.87473 Y181.13073
X215.87473 Y181.10533
X215.87473 Y181.07993
X215.87473 Y181.05453
X215.87473 Y181.02913
X215.87473 Y181.00373
X215.87473 Y180.97833
X215.87473 Y180.95293
X215.87473 Y180.92753
X215.87473 Y180.90213
X215.87473 Y180.87673
X215.87473 Y180.85133
X215.87473 Y180.82593
X215.87473 Y180.80053
X215.87473 Y180.77513
X215.87473 Y180.74973
X215.87473 Y180.72433
X215.87473 Y180.69893
X215.87473 Y180.67353
X215.87473 Y180.64813
X215.87473 Y180.62273
X215.87473 Y180.59733
X215.87473 Y180.57193
X215.87473 Y180.54653
X215.87473 Y180.52113
X215.87473 Y180.49573
X215.87473 Y180.47033
X215.87473 Y180.44493
X215.87473 Y180.41953
X215.87473 Y180.39413
X215.87473 Y180.36873
X215.87473 Y180.34333
X215.87473 Y180.31793
X215.87473 Y180.29253
X215.87473 Y180.26713
X215.87473 Y180.24173
X215.87473 Y180.21633
X215.87473 Y180.19093
X215.87473 Y180.16553
X215.87473 Y180.14013
X215.87473 Y180.11473
X215.87473 Y180.08933
X215.87473 Y180.06393
X215.87473 Y180.03853
X215.87473 Y180.01313
X215.87473 Y179.98773
X215.87473 Y179.96233
X215.87473 Y179.93693
X215.87473 Y179.91153
X215.87473 Y179.88613
X215.87473 Y179.86073
X215.87473 Y179.83533
X215.87473 Y179.80993
X215.87473 Y179.78453
X215.87473 Y179.75913
X215.87473 Y179.73373
X215.87473 Y179.70833
X215.87473 Y179.68293
X215.87473 Y179.65753
X215.87473 Y179.63213
X215.87473 Y179.60673
X215.87473 Y179.58133
X215.87473 Y179.55593
X215.87473 Y179.53053
X215.87473 Y179.50513
X215.87473 Y179.47973
X215.87473 Y179.45433
X215.87473 Y179.42893
X215.87473 Y179.40353
X215.87473 Y179.37813
X215.87473 Y179.35273
X215.87473 Y179.32733
X215.87473 Y179.30193
X215.87473 Y179.27653
X215.87473 Y179.25113
X215.87473 Y179.22573
X215.87473 Y179.20033
X215.87473 Y179.17493
X215.87473 Y179.14953
X215.87473 Y179.12413
X215.87473 Y179.09873
X215.87473 Y179.07333
X215.87473 Y179.04793
X215.87473 Y179.02253
X215.87473 Y178.99713
X215.87473 Y178.97173
X215.87473 Y178.94633
X215.87473 Y178.92093
X215.87473 Y178.89553
X215.87473 Y178.87013
X215.87473 Y178.84473
X215.87473 Y178.81933
X215.87473 Y178.79393
X215.87473 Y178.76853
X215.87473 Y178.74313
X215.87473 Y178.71773
X215.87473 Y178.69233
X215.87473 Y178.66693
X215.87473 Y178.64153
X215.87473 Y178.61613
X215.87473 Y178.59073
X215.87473 Y178.56533
X215.87473 Y178.53993
X215.87473 Y178.51453
X215.87473 Y178.48913
X215.87473 Y178.46373
X215.87473 Y178.43833
X215.87473 Y178.41293
X215.87473 Y178.38753
X215.87473 Y178.36213
X215.87473 Y178.33673
X215.87473 Y178.31133
X215.87473 Y178.28593
X215.87473 Y178.26053
X215.87473 Y178.23513
X215.87473 Y178.20973
X215.87473 Y178.18433
X215.87473 Y178.15893
X215.87473 Y178.13353
X215.87473 Y178.10813
X215.87473 Y178.08273
X215.87473 Y178.05733
X215.87473 Y178.03193
X215.87473 Y178.00653
X215.87473 Y177.98113
X215.87473 Y177.95573
X215.87473 Y177.93033
X215.87473 Y177.90493
X215.87473 Y177.87953
X215.87473 Y177.85413
X215.87473 Y177.82873
X215.87473 Y177.80333
X215.87473 Y177.77793
X215.87473 Y177.75253
X215.87473 Y177.72713
X215.87473 Y177.70173
X215.87473 Y177.67633
X215.87473 Y177.65093
X215.87473 Y177.62553
X215.87473 Y177.60013
X215.87473 Y177.57473
X215.87473 Y177.54933
X215.87473 Y177.52393
X215.87473 Y177.49853
X215.87473 Y177.47313
X215.87473 Y177.44773
X215.87473 Y177.42233
X215.87473 Y177.39693
X215.87473 Y177.37153
X215.87473 Y177.34613
X215.87473 Y177.32073
X215.87473 Y177.29533
X215.87473 Y177.26993
X215.87473 Y177.24453
X215.87473 Y177.21913
X215.87473 Y177.19373
X215.87473 Y177.16833
X215.87473 Y177.14293
X215.87473 Y177.11753
X215.87473 Y177.09213
X215.87473 Y177.06673
X215.87473 Y177.04133
X215.87473 Y177.01593
X215.87473 Y176.99053
X215.87473 Y176.96513
X215.87473 Y176.93973
X215.87473 Y176.91433
X215.87473 Y176.88893
X215.87473 Y176.86353
X215.87473 Y176.83813
X215.87473 Y176.81273
X215.87473 Y176.78733
X215.87473 Y176.76193
X215.87473 Y176.73653
X215.87473 Y176.71113
X215.87473 Y176.68573
X215.87473 Y176.66033
X215.87473 Y176.63493
X215.87473 Y176.60953
X215.87473 Y176.58413
X215.87473 Y176.55873
X215.87473 Y176.53333
X215.87473 Y176.50793
X215.87473 Y176.48253
X215.87473 Y176.45713
X215.87473 Y176.43173
X215.87473 Y176.40633
X215.87473 Y176.38093
X215.87473 Y176.35553
X215.87473 Y176.33013
X215.87473 Y176.30473
X215.87473 Y176.27933
X215.87473 Y176.25393
X215.87473 Y176.22853
X215.87473 Y176.20313
X215.87473 Y176.17773
X215.87473 Y176.15233
X215.87473 Y176.12693
X215.87473 Y176.10153
X215.87473 Y176.07613
X215.87473 Y176.05073
X215.87473 Y176.02533
X215.87473 Y175.99993
X215.87473 Y175.97453
X215.87473 Y175.94913
X215.87473 Y175.92373
X215.87473 Y175.89833
X215.87473 Y175.87293
X215.87473 Y175.84753
X215.87473 Y175.82213
X215.87473 Y175.79673
X215.87473 Y175.77133
X215.87473 Y175.74593
X215.87473 Y175.72053
X215.87473 Y175.69513
X215.87473 Y175.66973
X215.87473 Y175.64433
X215.87473 Y175.61893
X215.87473 Y175.59353
X215.87473 Y175.56813
X215.87473 Y175.54273
X215.87473 Y175.51733
X215.87473 Y175.49193
X215.87473 Y175.46653
X215.87473 Y175.44113
X215.87473 Y175.41573
X215.87473 Y175.39033
X215.87473 Y175.36493
X215.87473 Y175.33953
X215.87473 Y175.31413
X215.87473 Y175.28873
X215.87473 Y175.26333
X215.87473 Y175.23793
X215.87473 Y175.21253
X215.87473 Y175.18713
X215.87473 Y175.16173
X215.87473 Y175.13633
X215.87473 Y175.11093
X215.87473 Y175.08553
X215.87473 Y175.06013
X215.87473 Y175.03473
X215.87473 Y175.00933
X215.87473 Y174.98393
X215.87473 Y174.95853
X215.87473 Y174.93313
X215.87473 Y174.90773
X215.87473 Y174.88233
X215.87473 Y174.85693
X215.87473 Y174.83153
X215.87473 Y174.80613
X215.87473 Y174.78073
X215.87473 Y174.75533
X215.87473 Y174.72993
X215.87473 Y174.70453
X215.87473 Y174.67913
X215.87473 Y174.65373
X215.87473 Y174.62833
X215.87473 Y174.60293
X215.87473 Y174.57753
X215.87473 Y174.55213
X215.87473 Y174.52673
X215.87473 Y174.50133
X215.87473 Y174.47593
X215.87473 Y174.45053
X215.87473 Y174.42513
X215.87473 Y174.39973
X215.87473 Y174.37433
X215.87473 Y174.34893
X215.87473 Y174.32353
X215.87473 Y174.29813
X215.87473 Y174.27273
X215.87473 Y174.24733
X215.87473 Y174.22193
X215.87473 Y174.19653
X215.87473 Y174.17113
X215.87473 Y174.14573
X215.87473 Y174.12033
X215.87473 Y174.09493
X215.87473 Y174.06953
X215.87473 Y174.04413
X215.87473 Y174.01873
X215.87473 Y173.99333
X215.87473 Y173.96793
X215.87473 Y173.94253
X215.87473 Y173.91713
X215.87473 Y173.89173
X215.87473 Y173.86633
X215.87473 Y173.84093
X215.87473 Y173.81553
X215.87473 Y173.79013
X215.87473 Y173.76473
X215.87473 Y173.73933
X215.87473 Y173.71393
X215.87473 Y173.68853
X215.87473 Y173.66313
X215.87473 Y173.63773
X215.87473 Y173.61233
X215.87473 Y173.58693
X215.87473 Y173.56153
X215.87473 Y173.53613
X215.87473 Y173.51073
X215.87473 Y173.48533
X215.87473 Y173.45993
X215.87473 Y173.43453
X215.87473 Y173.40913
X215.87473 Y173.38373
X215.87473 Y173.35833
X215.87473 Y173.33293
X215.87473 Y173.30753
X215.87473 Y173.28213
X215.87473 Y173.25673
X215.87473 Y173.23133
X215.87473 Y173.20593
X215.87473 Y173.18053
X215.87473 Y173.15513
X215.87473 Y173.12973
X215.87473 Y173.10433
X215.87473 Y173.07893
X215.87473 Y173.05353
X215.87473 Y173.02813
X215.87473 Y173.00273
X215.87473 Y172.97733
X215.87473 Y172.95193
X215.87473 Y172.92653
X215.87473 Y172.90113
X215.87473 Y172.87573
X215.87473 Y172.85033
X215.87473 Y172.82493
X215.87473 Y172.79953
X215.87473 Y172.77413
X215.87473 Y172.74873
X215.87473 Y172.72333
X215.87473 Y172.69793
X215.87473 Y172.67253
X215.87473 Y172.64713
X215.87473 Y172.62173
X215.87473 Y172.59633
X215.87473 Y172.57093
X215.87473 Y172.54553
X215.87473 Y172.52013
X215.87473 Y172.49473
X215.87473 Y172.46933
X215.87473 Y172.44393
X215.87473 Y172.41853
X215.87473 Y172.39313
X215.87473 Y172.36773
X215.87473 Y172.34233
X215.87473 Y172.31693
X215.87473 Y172.29153
X215.87473 Y172.26613
X215.87473 Y172.24073
X215.87473 Y172.21533
X215.87473 Y172.18993
X215.87473 Y172.16453
X215.87473 Y172.13913
X215.87473 Y172.11373
X215.87473 Y172.08833
X215.87473 Y172.06293
X215.87473 Y172.03753
X215.87473 Y172.01213
X215.87473 Y171.98673
X215.87473 Y171.96133
X215.87473 Y171.93593
X215.87473 Y171.91053
X215.87473 Y171.88513
X215.87473 Y171.85973
X215.87473 Y171.83433
X215.87473 Y171.80893
X215.87473 Y171.78353
X215.87473 Y171.75813
X215.87473 Y171.73273
X215.87473 Y171.70733
X215.87473 Y171.68193
X215.87473 Y171.65653
X215.87473 Y171.63113
X215.87473 Y171.60573
X215.87473 Y171.58033
X215.87473 Y171.55493
X215.87473 Y171.52953
X215.87473 Y171.50413
X215.87473 Y171.47873
X215.87473 Y171.45333
X215.87473 Y171.42793
X215.87473 Y171.40253
X215.87473 Y171.37713
X215.87473 Y171.35173
X215.87473 Y171.32633
X215.87473 Y171.30093
X215.87473 Y171.27553
X215.87473 Y171.25013
X215.87473 Y171.22473
X215.87473 Y171.19933
X215.87473 Y171.17393
X215.87473 Y171.14853
X215.87473 Y171.12313
X215.87473 Y171.09773
X215.87473 Y171.07233
X215.87473 Y171.04693
X215.87473 Y171.02153
X215.87473 Y170.99613
X215.87473 Y170.97073
X215.87473 Y170.94533
X215.87473 Y170.91993
X215.87473 Y170.89453
X215.87473 Y170.86913
X215.87473 Y170.84373
X215.87473 Y170.81833
X215.87473 Y170.79293
X215.87473 Y170.76753
X215.87473 Y170.74213
X215.87473 Y170.71673
X215.87473 Y170.69133
X215.87473 Y170.66593
X215.87473 Y170.64053
X215.87473 Y170.61513
X215.87473 Y170.58973
X215.87473 Y170.56433
X215.87473 Y170.53893
X215.87473 Y170.51353
X215.87473 Y170.48813
X215.87473 Y170.46273
X215.87473 Y170.43733
X215.87473 Y170.41193
X215.87473 Y170.38653
X215.87473 Y170.36113
X215.87473 Y170.33573
X215.87473 Y170.31033
X215.87473 Y170.28493
X215.87473 Y170.25953
X215.87473 Y170.23413
X215.87473 Y170.20873
X215.87473 Y170.18333
X215.87473 Y170.15793
X215.87473 Y170.13253
X215.87473 Y170.10713
X215.87473 Y170.08173
X215.87473 Y170.05633
X215.87473 Y170.03093
X215.87473 Y170.00553
X215.87473 Y169.98013
X215.87473 Y169.95473
X215.87473 Y169.92933
X215.87473 Y169.90393
X215.87473 Y169.87853
X215.87473 Y169.85313
X215.87473 Y169.82773
X215.87473 Y169.80233
X215.87473 Y169.77693
X215.87473 Y169.75153
X215.87473 Y169.72613
X215.87473 Y169.70073
X215.87473 Y169.67533
X215.87473 Y169.64993
X215.87473 Y169.62453
X215.87473 Y169.59913
X215.87473 Y169.57373
X215.87473 Y169.54833
X215.87473 Y169.52293
X215.87473 Y169.49753
X215.87473 Y169.47213
X215.87473 Y169.44673
X215.87473 Y169.42133
X215.87473 Y169.39593
X215.87473 Y169.37053
X215.87473 Y169.34513
X215.87473 Y169.31973
X215.87473 Y169.29433
X215.87473 Y169.26893
X215.87473 Y169.24353
X215.87473 Y169.21813
X215.87473 Y169.19273
X215.87473 Y169.16733
X215.87473 Y169.14193
X215.87473 Y169.11653
X215.87473 Y169.09113
X215.87473 Y169.06573
X215.87473 Y169.04033
X215.87473 Y169.01493
X215.87473 Y168.98953
X215.87473 Y168.96413
X215.87473 Y168.93873
X215.87473 Y168.91333
X215.87473 Y168.88793
X215.87473 Y168.86253
X215.87473 Y168.83713
X215.87473 Y168.81173
X215.87473 Y168.78633
X215.87473 Y168.76093
X215.87473 Y168.73553
X215.87473 Y168.71013
X215.87473 Y168.68473
X215.87473 Y168.65933
X215.87473 Y168.63393
X215.87473 Y168.60853
X215.87473 Y168.58313
X215.87473 Y168.55773
X215.87473 Y168.53233
X215.87473 Y168.50693
X215.87473 Y168.48153
X215.87473 Y168.45613
X215.87473 Y168.43073
X215.87473 Y168.40533
X215.87473 Y168.37993
X215.87473 Y168.35453
X215.87473 Y168.32913
X215.87473 Y168.30373
X215.87473 Y168.27833
X215.87473 Y168.25293
X215.87473 Y168.22753
X215.87473 Y168.20213
X215.87473 Y168.17673
X215.87473 Y168.15133
X215.87473 Y168.12593
X215.87473 Y168.10053
X215.87473 Y168.07513
X215.87473 Y168.04973
X215.87473 Y168.02433
X215.87473 Y167.99893
X215.87473 Y167.97353
X215.87473 Y167.94813
X215.87473 Y167.92273
X215.87473 Y167.89733
X215.87473 Y167.87193
X215.87473 Y167.84653
X215.87473 Y167.82113
X215.87473 Y167.79573
X215.87473 Y167.77033
X215.87473 Y167.74493
X215.87473 Y167.71953
X215.87473 Y167.69413
X215.87473 Y167.66873
X215.87473 Y167.64333
X215.87473 Y167.61793
X215.87473 Y167.59253
X215.87473 Y167.56713
X215.87473 Y167.54173
X215.87473 Y167.51633
X215.87473 Y167.49093
X215.87473 Y167.46553
X215.87473 Y167.44013
X215.87473 Y167.41473
X215.87473 Y167.38933
X215.87473 Y167.36393
X215.87473 Y167.33853
X215.87473 Y167.31313
X215.87473 Y167.28773
X215.87473 Y167.26233
X215.87473 Y167.23693
X215.87473 Y167.21153
X215.87473 Y167.18613
X215.87473 Y167.16073
X215.87473 Y167.13533
X215.87473 Y167.10993
X215.87473 Y167.08453
X215.87473 Y167.05913
X215.87473 Y167.03373
X215.87473 Y167.00833
X215.87473 Y166.98293
X215.87473 Y166.95753
X215.87473 Y166.93213
X215.87473 Y166.90673
X215.87473 Y166.88133
X215.87473 Y166.85593
X215.87473 Y166.83053
X215.87473 Y166.80513
X215.87473 Y166.77973
X215.87473 Y166.75433
X215.87473 Y166.72893
X215.87473 Y166.70353
X215.87473 Y166.67813
X215.87473 Y166.65273
X215.87473 Y166.62733
X215.87473 Y166.60193
X215.87473 Y166.57653
X215.87473 Y166.55113
X215.87473 Y166.52573
X215.87473 Y166.50033
X215.87473 Y166.47493
X215.87473 Y166.44953
X215.87473 Y166.42413
X215.87473 Y166.39873
X215.87473 Y166.37333
X215.87473 Y166.34793
X215.87473 Y166.32253
X215.87473 Y166.29713
X215.87473 Y166.27173
X215.87473 Y166.24633
X215.87473 Y166.22093
X215.87473 Y166.19553
X215.87473 Y166.17013
X215.87473 Y166.14473
X215.87473 Y166.11933
X215.87473 Y166.09393
X215.87473 Y166.06853
X215.87473 Y166.04313
X215.87473 Y166.01773
X215.87473 Y165.99233
X215.87473 Y165.96693
X215.87473 Y165.94153
X215.87473 Y165.91613
X215.87473 Y165.89073
X215.87473 Y165.86533
X215.87473 Y165.83993
X215.87473 Y165.81453
X215.87473 Y165.78913
X215.87473 Y165.76373
X215.87473 Y165.73833
X215.87473 Y165.71293
X215.87473 Y165.68753
X215.87473 Y165.66213
X215.87473 Y165.63673
X215.87473 Y165.61133
X215.87473 Y165.58593
X215.87473 Y165.56053
X215.87473 Y165.53513
X215.87473 Y165.50973
X215.87473 Y165.48433
X215.87473 Y165.45893
X215.87473 Y165.43353
X215.87473 Y165.40813
X215.87473 Y165.38273
X215.87473 Y165.35733
X215.87473 Y165.33193
X215.87473 Y165.30653
X215.87473 Y165.28113
X215.87473 Y165.25573
X215.87473 Y165.23033
X215.87473 Y165.20493
X215.87473 Y165.17953
X215.87473 Y165.15413
X215.87473 Y165.12873
X215.87473 Y165.10333
X215.87473 Y165.07793
X215.87473 Y165.05253
X215.87473 Y165.02713
X215.87473 Y165.00173
X215.87473 Y164.97633
X215.87473 Y164.95093
X215.87473 Y164.92553
X215.87473 Y164.90013
X215.87473 Y164.87473
X215.87473 Y164.84933
X215.87473 Y164.82393
X215.87473 Y164.79853
X215.87473 Y164.77313
X215.87473 Y164.74773
X215.87473 Y164.72233
X215.87473 Y164.69693
X215.87473 Y164.67153
X215.87473 Y164.64613
X215.87473 Y164.62073
X215.87473 Y164.59533
X215.87473 Y164.56993
X215.87473 Y164.54453
X215.87473 Y164.51913
X215.87473 Y164.49373
X215.87473 Y164.46833
X215.87473 Y164.44293
X215.87473 Y164.41753
X215.87473 Y164.39213
X215.87473 Y164.36673
X215.87473 Y164.34133
X215.87473 Y164.31593
X215.87473 Y164.29053
X215.87473 Y164.26513
X215.87473 Y164.23973
X215.87473 Y164.21433
X215.87473 Y164.18893
X215.87473 Y164.16353
X215.87473 Y164.13813
X215.87473 Y164.11273
X215.87473 Y164.08733
X215.87473 Y164.06193
X215.87473 Y164.03653
X215.87473 Y164.01113
X215.87473 Y163.98573
X215.87473 Y163.96033
X215.87473 Y163.93493
X215.87473 Y163.90953
X215.87473 Y163.88413
X215.87473 Y163.85873
X215.87473 Y163.83333
X215.87473 Y163.80793
X215.87473 Y163.78253
X215.87473 Y163.75713
X215.87473 Y163.73173
X215.87473 Y163.70633
X215.87473 Y163.68093
X215.87473 Y163.65553
X215.87473 Y163.63013
X215.87473 Y163.60473
X215.87473 Y163.57933
X215.87473 Y163.55393
X215.87473 Y163.52853
X215.87473 Y163.50313
X215.87473 Y163.47773
X215.87473 Y163.45233
X215.87473 Y163.42693
X215.87473 Y163.40153
X215.87473 Y163.37613
X215.87473 Y163.35073
X215.87473 Y163.32533
X215.87473 Y163.29993
X215.87473 Y163.27453
X215.87473 Y163.24913
X215.87473 Y163.22373
X215.87473 Y163.19833
X215.87473 Y163.17293
X215.87473 Y163.14753
X215.87473 Y163.12213
X215.87473 Y163.09673
X215.87473 Y163.07133
X215.87473 Y163.04593
X215.87473 Y163.02053
X215.87473 Y162.99513
X215.87473 Y162.96973
X215.87473 Y162.94433
X215.87473 Y162.91893
X215.87473 Y162.89353
X215.87473 Y162.86813
X215.87473 Y162.84273
X215.87473 Y162.81733
X215.87473 Y162.79193
X215.87473 Y162.76653
X215.87473 Y162.74113
X215.87473 Y162.71573
X215.87473 Y162.69033
X215.87473 Y162.66493
X215.87473 Y162.63953
X215.87473 Y162.61413
X215.87473 Y162.58873
X215.87473 Y162.56333
X215.87473 Y162.53793
X215.87473 Y162.51253
X215.87473 Y162.48713
X215.87473 Y162.46173
X215.87473 Y162.43633
X215.87473 Y162.41093
X215.87473 Y162.38553
X215.87473 Y162.36013
X215.87473 Y162.33473
X215.87473 Y162.30933
X215.87473 Y162.28393
X215.87473 Y162.25853
X215.87473 Y162.23313
X215.87473 Y162.20773
X215.87473 Y162.18233
X215.87473 Y162.15693
X215.87473 Y162.13153
X215.87473 Y162.10613
X215.87473 Y162.08073
X215.87473 Y162.05533
X215.87473 Y162.02993
X215.87473 Y162.00453
X215.87473 Y161.97913
X215.87473 Y161.95373
X215.87473 Y161.92833
X215.87473 Y161.90293
X215.87473 Y161.87753
X215.87473 Y161.85213
X215.87473 Y161.82673
X215.87473 Y161.80133
X215.87473 Y161.77593
X215.87473 Y161.75053
X215.87473 Y161.72513
X215.87473 Y161.69973
X215.87473 Y161.67433
X215.87473 Y161.64893
X215.87473 Y161.62353
X215.87473 Y161.59813
X215.87473 Y161.57273
X215.87473 Y161.54733
X215.87473 Y161.52193
X215.87473 Y161.49653
X215.87473 Y161.47113
X215.87473 Y161.44573
X215.87473 Y161.42033
X215.87473 Y161.39493
X215.87473 Y161.36953
X215.87473 Y161.34413
X215.87473 Y161.31873
X215.87473 Y161.29333
X215.87473 Y161.26793
X215.87473 Y161.24253
X215.87473 Y161.21713
X215.87473 Y161.19173
X215.87473 Y161.16633
X215.87473 Y161.14093
X215.87473 Y161.11553
X215.87473 Y161.09013
X215.87473 Y161.06473
X215.87473 Y161.03933
X215.87473 Y161.01393
X215.87473 Y160.98853
X215.87473 Y160.96313
X215.87473 Y160.93773
X215.87473 Y160.91233
X215.87473 Y160.88693
X215.87473 Y160.86153
X215.87473 Y160.83613
X215.87473 Y160.81073
X215.87473 Y160.78533
X215.87473 Y160.75993
X215.87473 Y160.73453
X215.87473 Y160.70913
X215.87473 Y160.68373
X215.87473 Y160.65833
X215.87473 Y160.63293
X215.87473 Y160.60753
X215.87473 Y160.58213
X215.87473 Y160.55673
X215.87473 Y160.53133
X215.87473 Y160.50593
X215.87473 Y160.48053
X215.87473 Y160.45513
X215.87473 Y160.42973
X215.87473 Y160.40433
X215.87473 Y160.37893
X215.87473 Y160.35353
X215.87473 Y160.32813
X215.87473 Y160.30273
X215.87473 Y160.27733
X215.87473 Y160.25193
X215.87473 Y160.22653
X215.87473 Y160.20113
X215.87473 Y160.17573
X215.87473 Y160.15033
X215.87473 Y160.12493
X215.87473 Y160.09953
X215.87473 Y160.07413
X215.87473 Y160.04873
X215.87473 Y160.02333
X215.87473 Y159.99793
X215.87473 Y159.97253
X215.87473 Y159.94713
X215.87473 Y159.92173
X215.87473 Y159.89633
X215.87473 Y159.87093
X215.87473 Y159.84553
X215.87473 Y159.82013
X215.87473 Y159.79473
X215.87473 Y159.76933
X215.87473 Y159.74393
X215.87473 Y159.71853
X215.87473 Y159.69313
X215.87473 Y159.66773
X215.87473 Y159.64233
X215.87473 Y159.61693
X215.87473 Y159.59153
X215.87473 Y159.56613
X215.87473 Y159.54073
X215.87473 Y159.51533
X215.87473 Y159.48993
X215.87473 Y159.46453
X215.87473 Y159.43913
X215.87473 Y159.41373
X215.87473 Y159.38833
X215.87473 Y159.36293
X215.87473 Y159.33753
X215.87473 Y159.31213
X215.87473 Y159.28673
X215.87473 Y159.26133
X215.87473 Y159.23593
X215.87473 Y159.21053
X215.87473 Y159.18513
X215.87473 Y159.15973
X215.87473 Y159.13433
X215.87473 Y159.10893
X215.87473 Y159.08353
X215.87473 Y159.05813
X215.87473 Y159.03273
X215.87473 Y159.00733
X215.87473 Y158.98193
X215.87473 Y158.95653
X215.87473 Y158.93113
X215.87473 Y158.90573
X215.87473 Y158.88033
X215.87473 Y158.85493
X215.87473 Y158.82953
X215.87473 Y158.80413
X215.87473 Y158.77873
X215.87473 Y158.75333
X215.87473 Y158.72793
X215.87473 Y158.70253
X215.87473 Y158.67713
X215.87473 Y158.65173
X215.87473 Y158.62633
X215.87473 Y158.60093
X215.87473 Y158.57553
X215.87473 Y158.55013
X215.87473 Y158.52473
X215.87473 Y158.49933
X215.87473 Y158.47393
X215.87473 Y158.44853
X215.87473 Y158.42313
X215.87473 Y158.39773
X215.87473 Y158.37233
X215.87473 Y158.34693
X215.87473 Y158.32153
X215.87473 Y158.29613
X215.87473 Y158.27073
X215.87473 Y158.24533
X215.87473 Y158.21993
X215.87473 Y158.19453
X215.87473 Y158.16913
X215.87473 Y158.14373
X215.87473 Y158.11833
X215.87473 Y158.09293
X215.87473 Y158.06753
X215.87473 Y158.04213
X215.87473 Y158.01673
X215.87473 Y157.99133
X215.87473 Y157.96593
X215.87473 Y157.94053
X215.87473 Y157.91513
X215.87473 Y157.88973
X215.87473 Y157.86433
X215.87473 Y157.83893
X215.87473 Y157.81353
X215.87473 Y157.78813
X215.87473 Y157.76273
X215.87473 Y157.73733
X215.87473 Y157.71193
X215.87473 Y157.68653
X215.87473 Y157.66113
X215.87473 Y157.63573
X215.87473 Y157.61033
X215.87473 Y157.58493
X215.87473 Y157.55953
X215.87473 Y157.53413
X215.87473 Y157.50873
X215.87473 Y157.48333
X215.87473 Y157.45793
X215.87473 Y157.43253
X215.87473 Y157.40713
X215.87473 Y157.38173
X215.87473 Y157.35633
X215.87473 Y157.33093
X215.87473 Y157.30553
X215.87473 Y157.28013
X215.87473 Y157.25473
X215.87473 Y157.22933
X215.87473 Y157.20393
X215.87473 Y157.17853
X215.87473 Y157.15313
X215.87473 Y157.12773
X215.87473 Y157.10233
X215.87473 Y157.07693
X215.87473 Y157.05153
X215.87473 Y157.02613
X215.87473 Y157.00073
X215.87473 Y156.97533
X215.87473 Y156.94993
X215.87473 Y156.92453
X215.87473 Y156.89913
X215.87473 Y156.87373
X215.87473 Y156.84833
X215.87473 Y156.82293
X215.87473 Y156.79753
X215.87473 Y156.77213
X215.87473 Y156.74673
X215.87473 Y156.72133
X215.87473 Y156.69593
X215.87473 Y156.67053
X215.87473 Y156.64513
X215.87473 Y156.61973
X215.87473 Y156.59433
X215.87473 Y156.56893
X215.87473 Y156.54353
X215.87473 Y156.51813
X215.87473 Y156.49273
X215.87473 Y156.46733
X215.87473 Y156.44193
X215.87473 Y156.41653
X215.87473 Y156.39113
X215.87473 Y156.36573
X215.87473 Y156.34033
X215.87473 Y156.31493
X215.87473 Y156.28953
X215.87473 Y156.26413
X215.87473 Y156.23873
X215.87473 Y156.21333
X215.87473 Y156.18793
X215.87473 Y156.16253
X215.87473 Y156.13713
X215.87473 Y156.11173
X215.87473 Y156.08633
X215.87473 Y156.06093
X215.87473 Y156.03553
X215.87473 Y156.01013
X215.87473 Y155.98473
X215.87473 Y155.95933
X215.87473 Y155.93393
X215.87473 Y155.90853
X215.87473 Y155.88313
X215.87473 Y155.85773
X215.87473 Y155.83233
X215.87473 Y155.80693
X215.87473 Y155.78153
X215.87473 Y155.75613
X215.87473 Y155.73073
X215.87473 Y155.70533
X215.87473 Y155.67993
X215.87473 Y155.65453
X215.87473 Y155.62913
X215.87473 Y155.60373
X215.87473 Y155.57833
X215.87473 Y155.55293
X215.87473 Y155.52753
X215.87473 Y155.50213
X215.87473 Y155.47673
X215.87473 Y155.45133
X215.87473 Y155.42593
X215.87473 Y155.40053
X215.87473 Y155.37513
X215.87473 Y155.34973
X215.87473 Y155.32433
X215.87473 Y155.29893
X215.87473 Y155.27353
X215.87473 Y155.24813
X215.87473 Y155.22273
X215.87473 Y155.19733
X215.87473 Y155.17193
X215.87473 Y155.14653
X215.87473 Y155.12113
X215.87473 Y155.09573
X215.87473 Y155.07033
X215.87473 Y155.04493
X215.87473 Y155.01953
X215.87473 Y154.99413
X215.87473 Y154.96873
X215.87473 Y154.94333
X215.87473 Y154.91793
X215.87473 Y154.89253
X215.87473 Y154.86713
X215.87473 Y154.84173
X215.87473 Y154.81633
X215.87473 Y154.79093
X215.87473 Y154.76553
X215.87473 Y154.74013
X215.87473 Y154.71473
X215.87473 Y154.68933
X215.87473 Y154.66393
X215.87473 Y154.63853
X215.87473 Y154.61313
X215.87473 Y154.58773
X215.87473 Y154.56233
X215.87473 Y154.53693
X215.87473 Y154.51153
X215.87473 Y154.48613
X215.87473 Y154.46073
X215.87473 Y154.43533
X215.87473 Y154.40993
X215.87473 Y154.38453
X215.87473 Y154.35913
X215.87473 Y154.33373
X215.87473 Y154.30833
X215.87473 Y154.28293
X215.87473 Y154.25753
X215.87473 Y154.23213
X215.87473 Y154.20673
X215.87473 Y154.18133
X215.87473 Y154.15593
X215.87473 Y154.13053
X215.87473 Y154.10513
X215.87473 Y154.07973
X215.87473 Y154.05433
X215.87473 Y154.02893
X215.87473 Y154.00353
X215.87473 Y153.97813
X215.87473 Y153.95273
X215.87473 Y153.92733
X215.87473 Y153.90193
X215.87473 Y153.87653
X215.87473 Y153.85113
X215.87473 Y153.82573
X215.87473 Y153.80033
X215.87473 Y153.77493
X215.87473 Y153.74953
X215.87473 Y153.72413
X215.87473 Y153.69873
X215.87473 Y153.67333
X215.87473 Y153.64793
X215.87473 Y153.62253
X215.87473 Y153.59713
X215.87473 Y153.57173
X215.87473 Y153.54633
X215.87473 Y153.52093
X215.87473 Y153.49553
X215.87473 Y153.47013
X215.87473 Y153.44473
X215.87473 Y153.41933
X215.87473 Y153.39393
X215.87473 Y153.36853
X215.87473 Y153.34313
X215.87473 Y153.31773
X215.87473 Y153.29233
X215.87473 Y153.26693
X215.87473 Y153.24153
X215.87473 Y153.21613
X215.87473 Y153.19073
X215.87473 Y153.16533
X215.87473 Y153.13993
X215.87473 Y153.11453
X215.87473 Y153.08913
X215.87473 Y153.06373
X215.87473 Y153.03833
X215.87473 Y153.01293
X215.87473 Y152.98753
X215.87473 Y152.96213
X215.87473 Y152.93673
X215.87473 Y152.91133
X215.87473 Y152.88593
X215.87473 Y152.86053
X215.87473 Y152.83513
X215.87473 Y152.80973
X215.87473 Y152.78433
X215.87473 Y152.75893
X215.87473 Y152.73353
X215.87473 Y152.70813
X215.87473 Y152.68273
X215.87473 Y152.65733
X215.87473 Y152.63193
X215.87473 Y152.60653
X215.87473 Y152.58113
X215.87473 Y152.55573
X215.87473 Y152.53033
X215.87473 Y152.50493
X215.87473 Y152.47953
X215.87473 Y152.45413
X215.87473 Y152.42873
X215.87473 Y152.40333
X215.87473 Y152.37793
X215.87473 Y152.35253
X215.87473 Y152.32713
X215.87473 Y152.30173
X215.87473 Y152.27633
X215.87473 Y152.25093
X215.87473 Y152.22553
X215.87473 Y152.20013
X215.87473 Y152.17473
X215.87473 Y152.14933
X215.87473 Y152.12393
X215.87473 Y152.09853
X215.87473 Y152.07313
X215.87473 Y152.04773
X215.87473 Y152.02233
X215.87473 Y151.99693
X215.87473 Y151.97153
X215.87473 Y151.94613
X215.87473 Y151.92073
X215.87473 Y151.89533
X215.87473 Y151.86993
X215.87473 Y151.84453
X215.87473 Y151.81913
X215.87473 Y151.79373
X215.87473 Y151.76833
X215.87473 Y151.74293
X215.87473 Y151.71753
X215.87473 Y151.69213
X215.87473 Y151.66673
X215.87473 Y151.64133
X215.87473 Y151.61593
X215.87473 Y151.59053
X215.87473 Y151.56513
X215.87473 Y151.53973
X215.87473 Y151.51433
X215.87473 Y151.48893
X215.87473 Y151.46353
X215.87473 Y151.43813
X215.87473 Y151.41273
X215.87473 Y151.38733
X215.87473 Y151.36193
X215.87473 Y151.33653
X215.87473 Y151.31113
X215.87473 Y151.28573
X215.87473 Y151.26033
X215.87473 Y151.23493
X215.87473 Y151.20953
X215.87473 Y151.18413
X215.87473 Y151.15873
X215.87473 Y151.13333
X215.87473 Y151.10793
X215.87473 Y151.08253
X215.87473 Y151.05713
X215.87473 Y151.03173
X215.87473 Y151.00633
X215.87473 Y150.98093
X215.87473 Y150.95553
X215.87473 Y150.93013
X215.87473 Y150.90473
X215.87473 Y150.87933
X215.87473 Y150.85393
X215.87473 Y150.82853
X215.87473 Y150.80313
X215.87473 Y150.77773
X215.87473 Y150.75233
X215.87473 Y150.72693
X215.87473 Y150.70153
X215.87473 Y150.67613
X215.87473 Y150.65073
X215.87473 Y150.62533
X215.87473 Y150.59993
X215.87473 Y150.57453
X215.87473 Y150.54913
X215.87473 Y150.52373
X215.87473 Y150.49833
X215.87473 Y150.47293
X215.87473 Y150.44753
X215.87473 Y150.42213
X215.87473 Y150.39673
X215.87473 Y150.37133
X215.87473 Y150.34593
X215.87473 Y150.32053
X215.87473 Y150.29513
X215.87473 Y150.26973
X215.87473 Y150.24433
X215.87473 Y150.21893
X215.87473 Y150.19353
X215.87473 Y150.16813
X215.87473 Y150.14273
X215.87473 Y150.11733
X215.87473 Y150.09193
X215.87473 Y150.06653
X215.87473 Y150.04113
X215.87473 Y150.01573
X215.87473 Y149.99033
X215.87473 Y149.96493
X215.87473 Y149.93953
X215.87473 Y149.91413
X215.87473 Y149.88873
X215.87473 Y149.86333
X215.87473 Y149.83793
X215.87473 Y149.81253
X215.87473 Y149.78713
X215.87473 Y149.76173
X215.87473 Y149.73633
X215.87473 Y149.71093
X215.87473 Y149.68553
X215.87473 Y149.66013
X215.87473 Y149.63473
X215.87473 Y149.60933
X215.87473 Y149.58393
X215.87473 Y149.55853
X215.87473 Y149.53313
X215.87473 Y149.50773
X215.87473 Y149.48233
X215.87473 Y149.45693
X215.87473 Y149.43153
X215.87473 Y149.40613
X215.87473 Y149.38073
X215.87473 Y149.35533
X215.87473 Y149.32993
X215.87473 Y149.30453
X215.87473 Y149.27913
X215.87473 Y149.25373
X215.87473 Y149.22833
X215.87473 Y149.20293
X215.87473 Y149.17753
X215.87473 Y149.15213
X215.87473 Y149.12673
X215.87473 Y149.10133
X215.87473 Y149.07593
X215.87473 Y149.05053
X215.87473 Y149.02513
X215.87473 Y148.99973
X215.87473 Y148.97433
X215.87473 Y148.94893
X215.87473 Y148.92353
X215.87473 Y148.89813
X215.87473 Y148.87273
X215.87473 Y148.84733
X215.87473 Y148.82193
X215.87473 Y148.79653
X215.87473 Y148.77113
X215.87473 Y148.74573
X215.87473 Y148.72033
X215.87473 Y148.69493
X215.87473 Y148.66953
X215.87473 Y148.64413
X215.87473 Y148.61873
X215.87473 Y148.59333
X215.87473 Y148.56793
X215.87473 Y148.54253
X215.87473 Y148.51713
X215.87473 Y148.49173
X215.87473 Y148.46633
X215.87473 Y148.44093
X215.87473 Y148.41553
X215.87473 Y148.39013
X215.87473 Y148.36473
X215.87473 Y148.33933
X215.87473 Y148.31393
X215.87473 Y148.28853
X215.87473 Y148.26313
X215.87473 Y148.23773
X215.87473 Y148.21233
X215.87473 Y148.18693
X215.87473 Y148.16153
X215.87473 Y148.13613
X215.87473 Y148.11073
X215.87473 Y148.08533
X215.87473 Y148.05993
X215.87473 Y148.03453
X215.87473 Y148.00913
X215.87473 Y147.98373
X215.87473 Y147.95833
X215.87473 Y147.93293
X215.87473 Y147.90753
X215.87473 Y147.88213
X215.87473 Y147.85673
X215.87473 Y147.83133
X215.87473 Y147.80593
X215.87473 Y147.78053
X215.87473 Y147.75513
X215.87473 Y147.72973
X215.87473 Y147.70433
X215.87473 Y147.67893
X215.87473 Y147.65353
X215.87473 Y147.62813
X215.87473 Y147.60273
X215.87473 Y147.57733
X215.87473 Y147.55193
X215.87473 Y147.52653
X215.87473 Y147.50113
X215.87473 Y147.47573
X215.87473 Y147.45033
X215.87473 Y147.42493
X215.87473 Y147.39953
X215.87473 Y147.37413
X215.87473 Y147.34873
X215.87473 Y147.32333
X215.87473 Y147.29793
X215.87473 Y147.27253
X215.87473 Y147.24713
X215.87473 Y147.22173
X215.87473 Y147.19633
X215.87473 Y147.17093
X215.87473 Y147.14553
X215.87473 Y147.12013
X215.87473 Y147.09473
X215.87473 Y147.06933
X215.87473 Y147.04393
X215.87473 Y147.01853
X215.87473 Y146.99313
X215.87473 Y146.96773
X215.87473 Y146.94233
X215.87473 Y146.91693
X215.87473 Y146.89153
X215.87473 Y146.86613
X215.87473 Y146.84073
X215.87473 Y146.81533
X215.87473 Y146.78993
X215.87473 Y146.76453
X215.87473 Y146.73913
X215.87473 Y146.71373
X215.87473 Y146.68833
X215.87473 Y146.66293
X215.87473 Y146.63753
X215.87473 Y146.61213
X215.87473 Y146.58673
X215.87473 Y146.56133
X215.87473 Y146.53593
X215.87473 Y146.51053
X215.87473 Y146.48513
X215.87473 Y146.45973
X215.87473 Y146.43433
X215.87473 Y146.40893
X215.87473 Y146.38353
X215.87473 Y146.35813
X215.87473 Y146.33273
X215.87473 Y146.30733
X215.87473 Y146.28193
X215.87473 Y146.25653
X215.87473 Y146.23113
X215.87473 Y146.20573
X215.87473 Y146.18033
X215.87473 Y146.15493
X215.87473 Y146.12953
X215.87473 Y146.10413
X215.87473 Y146.07873
X215.87473 Y146.05333
X215.87473 Y146.02793
X215.87473 Y146.00253
X215.87473 Y145.97713
X215.87473 Y145.95173
X215.87473 Y145.92633
X215.87473 Y145.90093
X215.87473 Y145.87553
X215.87473 Y145.85013
X215.87473 Y145.82473
X215.87473 Y145.79933
X215.87473 Y145.77393
X215.87473 Y145.74853
X215.87473 Y145.72313
X215.87473 Y145.69773
X215.87473 Y145.67233
X215.87473 Y145.64693
X215.87473 Y145.62153
X215.87473 Y145.59613
X215.87473 Y145.57073
X215.87473 Y145.54533
X215.87473 Y145.51993
X215.87473 Y145.49453
X215.87473 Y145.46913
X215.87473 Y145.44373
X215.87473 Y145.41833
X215.87473 Y145.39293
X215.87473 Y145.36753
X215.87473 Y145.34213
X215.87473 Y145.31673
X215.87473 Y145.29133
X215.87473 Y145.26593
X215.87473 Y145.24053
X215.87473 Y145.21513
X215.87473 Y145.18973
X215.87473 Y145.16433
X215.87473 Y145.13893
X215.87473 Y145.11353
X215.87473 Y145.08813
X215.87473 Y145.06273
X215.87473 Y145.03733
X215.87473 Y145.01193
X215.87473 Y144.98653
X215.87473 Y144.96113
X215.87473 Y144.93573
X215.87473 Y144.91033
X215.87473 Y144.88493
X215.87473 Y144.85953
X215.87473 Y144.83413
X215.87473 Y144.80873
X215.87473 Y144.78333
X215.87473 Y144.75793
X215.87473 Y144.73253
X215.87473 Y144.70713
X215.87473 Y144.68173
X215.87473 Y144.65633
X215.87473 Y144.63093
X215.87473 Y144.60553
X215.87473 Y144.58013
X215.87473 Y144.55473
X215.87473 Y144.52933
X215.87473 Y144.50393
X215.87473 Y144.47853
X215.87473 Y144.45313
X215.87473 Y144.42773
X215.87473 Y144.40233
X215.87473 Y144.37693
X215.87473 Y144.35153
X215.87473 Y144.32613
X215.87473 Y144.30073
X215.87473 Y144.27533
X215.87473 Y144.24993
X215.87473 Y144.22453
X215.87473 Y144.19913
X215.87473 Y144.17373
X215.87473 Y144.14833
X215.87473 Y144.12293
X215.87473 Y144.09753
X215.87473 Y144.07213
X215.87473 Y144.04673
X215.87473 Y144.02133
X215.87473 Y143.99593
X215.87473 Y143.97053
X215.87473 Y143.94513
X215.87473 Y143.91973
X215.87473 Y143.89433
X215.87473 Y143.86893
X215.87473 Y143.84353
X215.87473 Y143.81813
X215.87473 Y143.79273
X215.87473 Y143.76733
X215.87473 Y143.74193
X215.87473 Y143.71653
X215.87473 Y143.69113
X215.87473 Y143.66573
X215.87473 Y143.64033
X215.87473 Y143.61493
X215.87473 Y143.58953
X215.87473 Y143.56413
X215.87473 Y143.53873
X215.87473 Y143.51333
X215.87473 Y143.48793
X215.87473 Y143.46253
X215.87473 Y143.43713
X215.87473 Y143.41173
X215.87473 Y143.38633
X215.87473 Y143.36093
X215.87473 Y143.33553
X215.87473 Y143.31013
X215.87473 Y143.28473
X215.87473 Y143.25933
X215.87473 Y143.23393
X215.87473 Y143.20853
X215.87473 Y143.18313
X215.87473 Y143.15773
X215.87473 Y143.13233
X215.87473 Y143.10693
X215.87473 Y143.08153
X215.87473 Y143.05613
X215.87473 Y143.03073
X215.87473 Y143.00533
X215.87473 Y142.97993
X215.87473 Y142.95453
X215.87473 Y142.92913
X215.87473 Y142.90373
X215.87473 Y142.87833
X215.87473 Y142.85293
X215.87473 Y142.82753
X215.87473 Y142.80213
X215.87473 Y142.77673
X215.87473 Y142.75133
X215.87473 Y142.72593
X215.87473 Y142.70053
X215.87473 Y142.67513
X215.87473 Y142.64973
X215.87473 Y142.62433
X215.87473 Y142.59893
X215.87473 Y142.57353
X215.87473 Y142.54813
X215.87473 Y142.52273
X215.87473 Y142.49733
X215.87473 Y142.47193
X215.87473 Y142.44653
X215.87473 Y142.42113
X215.87473 Y142.39573
X215.87473 Y142.37033
X215.87473 Y142.34493
X215.87473 Y142.31953
X215.87473 Y142.29413
X215.87473 Y142.26873
X215.87473 Y142.24333
X215.87473 Y142.21793
X215.87473 Y142.19253
X215.87473 Y142.16713
X215.87473 Y142.14173
X215.87473 Y142.11633
X215.87473 Y142.09093
X215.87473 Y142.06553
X215.87473 Y142.04013
X215.87473 Y142.01473
X215.87473 Y141.98933
X215.87473 Y141.96393
X215.87473 Y141.93853
X215.87473 Y141.91313
X215.87473 Y141.88773
X215.87473 Y141.86233
X215.87473 Y141.83693
X215.87473 Y141.81153
X215.87473 Y141.78613
X215.87473 Y141.76073
X215.87473 Y141.73533
X215.87473 Y141.70993
X215.87473 Y141.68453
X215.87473 Y141.65913
X215.87473 Y141.63373
X215.87473 Y141.60833
X215.87473 Y141.58293
X215.87473 Y141.55753
X215.87473 Y141.53213
X215.87473 Y141.50673
X215.87473 Y141.48133
X215.87473 Y141.45593
X215.87473 Y141.43053
X215.87473 Y141.40513
X215.87473 Y141.37973
X215.87473 Y141.35433
X215.87473 Y141.32893
X215.87473 Y141.30353
X215.87473 Y141.27813
X215.87473 Y141.25273
X215.87473 Y141.22733
X215.87473 Y141.20193
X215.87473 Y141.17653
X215.87473 Y141.15113
X215.87473 Y141.12573
X215.87473 Y141.10033
X215.87473 Y141.07493
X215.87473 Y141.04953
X215.87473 Y141.02413
X215.87473 Y140.99873
X215.87473 Y140.97333
X215.87473 Y140.94793
X215.87473 Y140.92253
X215.87473 Y140.89713
X215.87473 Y140.87173
X215.87473 Y140.84633
X215.87473 Y140.82093
X215.87473 Y140.79553
X215.87473 Y140.77013
X215.87473 Y140.74473
X215.87473 Y140.71933
X215.87473 Y140.69393
X215.87473 Y140.66853
X215.87473 Y140.64313
X215.87473 Y140.61773
X215.87473 Y140.59233
X215.87473 Y140.56693
X215.87473 Y140.54153
X215.87473 Y140.51613
X215.87473 Y140.49073
X215.87473 Y140.46533
X215.87473 Y140.43993
X215.87473 Y140.41453
X215.87473 Y140.38913
X215.87473 Y140.36373
X215.87473 Y140.33833
X215.87473 Y140.31293
X215.87473 Y140.28753
X215.87473 Y140.26213
X215.87473 Y140.23673
X215.87473 Y140.21133
X215.87473 Y140.18593
X215.87473 Y140.16053
X215.87473 Y140.13513
X215.87473 Y140.10973
X215.87473 Y140.08433
X215.87473 Y140.05893
X215.87473 Y140.03353
X215.87473 Y140.00813
X215.87473 Y139.98273
X215.87473 Y139.95733
X215.87473 Y139.93193
X215.87473 Y139.90653
X215.87473 Y139.88113
X215.87473 Y139.85573
X215.87473 Y139.83033
X215.87473 Y139.80493
X215.87473 Y139.77953
X215.87473 Y139.75413
X215.87473 Y139.72873
X215.87473 Y139.70333
X215.87473 Y139.67793
X215.87473 Y139.65253
X215.87473 Y139.62713
X215.87473 Y139.60173
X215.87473 Y139.57633
X215.87473 Y139.55093
X215.87473 Y139.52553
X215.87473 Y139.50013
X215.87473 Y139.47473
X215.87473 Y139.44933
X215.87473 Y139.42393
X215.87473 Y139.39853
X215.87473 Y139.37313
X215.87473 Y139.34773
X215.87473 Y139.32233
X215.87473 Y139.29693
X215.87473 Y139.27153
X215.87473 Y139.24613
X215.87473 Y139.22073
X215.87473 Y139.19533
X215.87473 Y139.16993
X215.87473 Y139.14453
X215.87473 Y139.11913
X215.87473 Y139.09373
X215.87473 Y139.06833
X215.87473 Y139.04293
X215.87473 Y139.01753
X215.87473 Y138.99213
X215.87473 Y138.96673
X215.87473 Y138.94133
X215.87473 Y138.91593
X215.87473 Y138.89053
X215.87473 Y138.86513
X215.87473 Y138.83973
X215.87473 Y138.81433
X215.87473 Y138.78893
X215.87473 Y138.76353
X215.87473 Y138.73813
X215.87473 Y138.71273
X215.87473 Y138.68733
X215.87473 Y138.66193
X215.87473 Y138.63653
X215.87473 Y138.61113
X215.87473 Y138.58573
X215.87473 Y138.56033
X215.87473 Y138.53493
X215.87473 Y138.50953
X215.87473 Y138.48413
X215.87473 Y138.45873
X215.87473 Y138.43333
X215.87473 Y138.40793
X215.87473 Y138.38253
X215.87473 Y138.35713
X215.87473 Y138.33173
X215.87473 Y138.30633
X215.87473 Y138.28093
X215.87473 Y138.25553
X215.87473 Y138.23013
X215.87473 Y138.20473
X215.87473 Y138.17933
X215.87473 Y138.15393
X215.87473 Y138.12853
X215.87473 Y138.10313
X215.87473 Y138.07773
X215.87473 Y138.05233
X215.87473 Y138.02693
X215.87473 Y138.00153
X215.87473 Y137.97613
X215.87473 Y137.95073
X215.87473 Y137.92533
X215.87473 Y137.89993
X215.87473 Y137.87453
X215.87473 Y137.84913
X215.87473 Y137.82373
X215.87473 Y137.79833
X215.87473 Y137.77293
X215.87473 Y137.74753
X215.87473 Y137.72213
X215.87473 Y137.69673
X215.87473 Y137.67133
X215.87473 Y137.64593
X215.87473 Y137.62053
X215.87473 Y137.59513
X215.87473 Y137.56973
X215.87473 Y137.54433
X215.87473 Y137.51893
X215.87473 Y137.49353
X215.87473 Y137.46813
X215.87473 Y137.44273
X215.87473 Y137.41733
X215.87473 Y137.39193
X215.87473 Y137.36653
X215.87473 Y137.34113
X215.87473 Y137.31573
X215.87473 Y137.29033
X215.87473 Y137.26493
X215.87473 Y137.23953
X215.87473 Y137.21413
X215.87473 Y137.18873
X215.87473 Y137.16333
X215.87473 Y137.13793
X215.87473 Y137.11253
X215.87473 Y137.08713
X215.87473 Y137.06173
X215.87473 Y137.03633
X215.87473 Y137.01093
X215.87473 Y136.98553
X215.87473 Y136.96013
X215.87473 Y136.93473
X215.87473 Y136.90933
X215.87473 Y136.88393
X215.87473 Y136.85853
X215.87473 Y136.83313
X215.87473 Y136.80773
X215.87473 Y136.78233
X215.87473 Y136.75693
X215.87473 Y136.73153
X215.87473 Y136.70613
X215.87473 Y136.68073
X215.87473 Y136.65533
X215.87473 Y136.62993
X215.87473 Y136.60453
X215.87473 Y136.57913
X215.87473 Y136.55373
X215.87473 Y136.52833
X215.87473 Y136.50293
X215.87473 Y136.47753
X215.87473 Y136.45213
X215.87473 Y136.42673
X215.87473 Y136.40133
X215.87473 Y136.37593
X215.87473 Y136.35053
X215.87473 Y136.32513
X215.87473 Y136.29973
X215.87473 Y136.27433
X215.87473 Y136.24893
X215.87473 Y136.22353
X215.87473 Y136.19813
X215.87473 Y136.17273
X215.87473 Y136.14733
X215.87473 Y136.12193
X215.87473 Y136.09653
X215.87473 Y136.07113
X215.87473 Y136.04573
X215.87473 Y136.02033
X215.87473 Y135.99493
X215.87473 Y135.96953
X215.87473 Y135.94413
X215.87473 Y135.91873
X215.87473 Y135.89333
X215.87473 Y135.86793
X215.87473 Y135.84253
X215.87473 Y135.81713
X215.87473 Y135.79173
X215.87473 Y135.76633
X215.87473 Y135.74093
X215.87473 Y135.71553
X215.87473 Y135.69013
X215.87473 Y135.66473
X215.87473 Y135.63933
X215.87473 Y135.61393
X215.87473 Y135.58853
X215.87473 Y135.56313
X215.87473 Y135.53773
X215.87473 Y135.51233
X215.87473 Y135.48693
X215.87473 Y135.46153
X215.87473 Y135.43613
X215.87473 Y135.41073
X215.87473 Y135.38533
X215.87473 Y135.35993
X215.87473 Y135.33453
X215.87473 Y135.30913
X215.87473 Y135.28373
X215.87473 Y135.25833
X215.87473 Y135.23293
X215.87473 Y135.20753
X215.87473 Y135.18213
X215.87473 Y135.15673
X215.87473 Y135.13133
X215.87473 Y135.10593
X215.87473 Y135.08053
X215.87473 Y135.05513
X215.87473 Y135.02973
X215.87473 Y135.00433
X215.87473 Y134.97893
X215.87473 Y134.95353
X215.87473 Y134.92813
X215.87473 Y134.90273
X215.87473 Y134.87733
X215.87473 Y134.85193
X215.87473 Y134.82653
X215.87473 Y134.80113
X215.87473 Y134.77573
X215.87473 Y134.75033
X215.87473 Y134.72493
X215.87473 Y134.69953
X215.87473 Y134.67413
X215.87473 Y134.64873
X215.87473 Y134.62333
X215.87473 Y134.59793
X215.87473 Y134.57253
X215.87473 Y134.54713
X215.87473 Y134.52173
X215.87473 Y134.49633
X215.87473 Y134.47093
X215.87473 Y134.44553
X215.87473 Y134.42013
X215.87473 Y134.39473
X215.87473 Y134.36933
X215.87473 Y134.34393
X215.87473 Y134.31853
X215.87473 Y134.29313
X215.87473 Y134.26773
X215.87473 Y134.24233
X215.87473 Y134.21693
X215.87473 Y134.19153
X215.87473 Y134.16613
X215.87473 Y134.14073
X215.87473 Y134.11533
X215.87473 Y134.08993
X215.87473 Y134.06453
X215.87473 Y134.03913
X215.87473 Y134.01373
X215.87473 Y133.98833
X215.87473 Y133.96293
X215.87473 Y133.93753
X215.87473 Y133.91213
X215.87473 Y133.88673
X215.87473 Y133.86133
X215.87473 Y133.83593
X215.87473 Y133.81053
X215.87473 Y133.78513
X215.87473 Y133.75973
X215.87473 Y133.73433
X215.87473 Y133.70893
X215.87473 Y133.68353
X215.87473 Y133.65813
X215.87473 Y133.63273
X215.87473 Y133.60733
X215.87473 Y133.58193
X215.87473 Y133.55653
X215.87473 Y133.53113
X215.87473 Y133.50573
X215.87473 Y133.48033
X215.87473 Y133.45493
X215.87473 Y133.42953
X215.87473 Y133.40413
X215.87473 Y133.37873
X215.87473 Y133.35333
X215.87473 Y133.32793
X215.87473 Y133.30253
X215.87473 Y133.27713
X215.87473 Y133.25173
X215.87473 Y133.22633
X215.87473 Y133.20093
X215.87473 Y133.17553
X215.87473 Y133.15013
X215.87473 Y133.12473
X215.87473 Y133.09933
X215.87473 Y133.07393
X215.87473 Y133.04853
X215.87473 Y133.02313
X215.87473 Y132.99773
X215.87473 Y132.97233
X215.87473 Y132.94693
X215.87473 Y132.92153
X215.87473 Y132.89613
X215.87473 Y132.87073
X215.87473 Y132.84533
X215.87473 Y132.81993
X215.87473 Y132.79453
X215.87473 Y132.76913
X215.87473 Y132.74373
X215.87473 Y132.71833
X215.87473 Y132.69293
X215.87473 Y132.66753
X215.87473 Y132.64213
X215.87473 Y132.61673
X215.87473 Y132.59133
X215.87473 Y132.56593
X215.87473 Y132.54053
X215.87473 Y132.51513
X215.87473 Y132.48973
X215.87473 Y132.46433
X215.87473 Y132.43893
X215.87473 Y132.41353
X215.87473 Y132.38813
X215.87473 Y132.36273
X215.87473 Y132.33733
X215.87473 Y132.31193
X215.87473 Y132.28653
X215.87473 Y132.26113
X215.87473 Y132.23573
X215.87473 Y132.21033
X215.87473 Y132.18493
X215.87473 Y132.15953
X215.87473 Y132.13413
X215.87473 Y132.10873
X215.87473 Y132.08333
X215.87473 Y132.05793
X215.87473 Y132.03253
X215.87473 Y132.00713
X215.87473 Y131.98173
X215.87473 Y131.95633
X215.87473 Y131.93093
X215.87473 Y131.90553
X215.87473 Y131.88013
X215.87473 Y131.85473
X215.87473 Y131.82933
X215.87473 Y131.80393
X215.87473 Y131.77853
X215.87473 Y131.75313
X215.87473 Y131.72773
X215.87473 Y131.70233
X215.87473 Y131.67693
X215.87473 Y131.65153
X215.87473 Y131.62613
X215.87473 Y131.60073
X215.87473 Y131.57533
X215.87473 Y131.54993
X215.87473 Y131.52453
X215.87473 Y131.49913
X215.87473 Y131.47373
X215.87473 Y131.44833
X215.87473 Y131.42293
X215.87473 Y131.39753
X215.87473 Y131.37213
X215.87473 Y131.34673
X215.87473 Y131.32133
X215.87473 Y131.29593
X215.87473 Y131.27053
X215.87473 Y131.24513
X215.87473 Y131.21973
X215.87473 Y131.19433
X215.87473 Y131.16893
X215.87473 Y131.14353
X215.87473 Y131.11813
X215.87473 Y131.09273
X215.87473 Y131.06733
X215.87473 Y131.04193
X215.87473 Y131.01653
X215.87473 Y130.99113
X215.87473 Y130.96573
X215.87473 Y130.94033
X215.87473 Y130.91493
X215.87473 Y130.88953
X215.87473 Y130.86413
X215.87473 Y130.83873
X215.87473 Y130.81333
X215.87473 Y130.78793
X215.87473 Y130.76253
X215.87473 Y130.73713
X215.87473 Y130.71173
X215.87473 Y130.68633
X215.87473 Y130.66093
X215.87473 Y130.63553
X215.87473 Y130.61013
X215.87473 Y130.58473
X215.87473 Y130.55933
X215.87473 Y130.53393
X215.87473 Y130.50853
X215.87473 Y130.48313
X215.87473 Y130.45773
X215.87473 Y130.43233
X215.87473 Y130.40693
X215.87473 Y130.38153
X215.87473 Y130.35613
X215.87473 Y130.33073
X215.87473 Y130.30533
X215.87473 Y130.27993
X215.87473 Y130.25453
X215.87473 Y130.22913
X215.87473 Y130.20373
X215.87473 Y130.17833
X215.87473 Y130.15293
X215.87473 Y130.12753
X215.87473 Y130.10213
X215.87473 Y130.07673
X215.87473 Y130.05133
X215.87473 Y130.02593
X215.87473 Y130.00053
X215.87473 Y129.97513
X215.87473 Y129.94973
X215.87473 Y129.92433
X215.87473 Y129.89893
X215.87473 Y129.87353
X215.87473 Y129.84813
X215.87473 Y129.82273
X215.87473 Y129.79733
X215.87473 Y129.77193
X215.87473 Y129.74653
X215.87473 Y129.72113
X215.87473 Y129.69573
X215.87473 Y129.67033
X215.87473 Y129.64493
X215.87473 Y129.61953
X215.87473 Y129.59413
X215.87473 Y129.56873
X215.87473 Y129.54333
X215.87473 Y129.51793
X215.87473 Y129.49253
X215.87473 Y129.46713
X215.87473 Y129.44173
X215.87473 Y129.41633
X215.87473 Y129.39093
X215.87473 Y129.36553
X215.87473 Y129.34013
X215.87473 Y129.31473
X215.87473 Y129.28933
X215.87473 Y129.26393
X215.87473 Y129.23853
X215.87473 Y129.21313
X215.87473 Y129.18773
X215.87473 Y129.16233
X215.87473 Y129.13693
X215.87473 Y129.11153
X215.87473 Y129.08613
X215.87473 Y129.06073
X215.87473 Y129.03533
X215.87473 Y129.00993
X215.87473 Y128.98453
X215.87473 Y128.95913
X215.87473 Y128.93373
X215.87473 Y128.90833
X215.87473 Y128.88293
X215.87473 Y128.85753
X215.87473 Y128.83213
X215.87473 Y128.80673
X215.87473 Y128.78133
X215.87473 Y128.75593
X215.87473 Y128.73053
X215.87473 Y128.70513
X215.87473 Y128.67973
X215.87473 Y128.65433
X215.87473 Y128.62893
X215.87473 Y128.60353
X215.87473 Y128.57813
X215.87473 Y128.55273
X215.87473 Y128.52733
X215.87473 Y128.50193
X215.87473 Y128.47653
X215.87473 Y128.45113
X215.87473 Y128.42573
X215.87473 Y128.40033
X215.87473 Y128.37493
X215.87473 Y128.34953
X215.87473 Y128.32413
X215.87473 Y128.29873
X215.87473 Y128.27333
X215.87473 Y128.24793
X215.87473 Y128.22253
X215.87473 Y128.19713
X215.87473 Y128.17173
X215.87473 Y128.14633
X215.87473 Y128.12093
X215.87473 Y128.09553
X215.87473 Y128.07013
X215.87473 Y128.04473
X215.87473 Y128.01933
X215.87473 Y127.99393
X215.87473 Y127.96853
X215.87473 Y127.94313
X215.87473 Y127.91773
X215.87473 Y127.89233
X215.87473 Y127.86693
X215.87473 Y127.84153
X215.87473 Y127.81613
X215.87473 Y127.79073
X215.87473 Y127.76533
X215.87473 Y127.73993
X215.87473 Y127.71453
X215.87473 Y127.68913
X215.87473 Y127.66373
X215.87473 Y127.63833
X215.87473 Y127.61293
X215.87473 Y127.58753
X215.87473 Y127.56213
X215.87473 Y127.53673
X215.87473 Y127.51133
X215.87473 Y127.48593
X215.87473 Y127.46053
X215.87473 Y127.43513
X215.87473 Y127.40973
X215.87473 Y127.38433
X215.87473 Y127.35893
X215.87473 Y127.33353
X215.87473 Y127.30813
X215.87473 Y127.28273
X215.87473 Y127.25733
X215.87473 Y127.23193
X215.87473 Y127.20653
X215.87473 Y127.18113
X215.87473 Y127.15573
X215.87473 Y127.13033
X215.87473 Y127.10493
X215.87473 Y127.07953
X215.87473 Y127.05413
X215.87473 Y127.02873
X215.87473 Y127.00333
X215.87473 Y126.97793
X215.87473 Y126.95253
X215.87473 Y126.92713
X215.87473 Y126.90173
X215.87473 Y126.87633
X215.87473 Y126.85093
X215.87473 Y126.82553
X215.87473 Y126.80013
X215.87473 Y126.77473
X215.87473 Y126.74933
X215.87473 Y126.72393
X215.87473 Y126.69853
X215.87473 Y126.67313
X215.87473 Y126.64773
X215.87473 Y126.62233
X215.87473 Y126.59693
X215.87473 Y126.57153
X215.87473 Y126.54613
X215.87473 Y126.52073
X215.87473 Y126.49533
X215.87473 Y126.46993
X215.87473 Y126.44453
X215.87473 Y126.41913
X215.87473 Y126.39373
X215.87473 Y126.36833
X215.87473 Y126.34293
X215.87473 Y126.31753
X215.87473 Y126.29213
X215.87473 Y126.26673
X215.87473 Y126.24133
X215.87473 Y126.21593
X215.87473 Y126.19053
X215.87473 Y126.16513
X215.87473 Y126.13973
X215.87473 Y126.11433
X215.87473 Y126.08893
X215.87473 Y126.06353
X215.87473 Y126.03813
X215.87473 Y126.01273
X215.87473 Y125.98733
X215.87473 Y125.96193
X215.87473 Y125.93653
X215.87473 Y125.91113
X215.87473 Y125.88573
X215.87473 Y125.86033
X215.87473 Y125.83493
X215.87473 Y125.80953
X215.87473 Y125.78413
X215.87473 Y125.75873
X215.87473 Y125.73333
X215.87473 Y125.70793
X215.87473 Y125.68253
X215.87473 Y125.65713
X215.87473 Y125.63173
X215.87473 Y125.60633
X215.87473 Y125.58093
X215.87473 Y125.55553
X215.87473 Y125.53013
X215.87473 Y125.50473
X215.87473 Y125.47933
X215.87473 Y125.45393
X215.87473 Y125.42853
X215.87473 Y125.40313
X215.87473 Y125.37773
X215.87473 Y125.35233
X215.87473 Y125.32693
X215.87473 Y125.30153
X215.87473 Y125.27613
X215.87473 Y125.25073
X215.87473 Y125.22533
X215.87473 Y125.19993
X215.87473 Y125.17453
X215.87473 Y125.14913
X215.87473 Y125.12373
X215.87473 Y125.09833
X215.87473 Y125.07293
X215.87473 Y125.04753
X215.87473 Y125.02213
X215.87473 Y124.99673
X215.87473 Y124.97133
X215.87473 Y124.94593
X215.87473 Y124.92053
X215.87473 Y124.89513
X215.87473 Y124.86973
X215.87473 Y124.84433
X215.87473 Y124.81893
X215.87473 Y124.79353
X215.87473 Y124.76813
X215.87473 Y124.74273
X215.87473 Y124.71733
X215.87473 Y124.69193
X215.87473 Y124.66653
X215.87473 Y124.64113
X215.87473 Y124.61573
X215.87473 Y124.59033
X215.87473 Y124.56493
X215.87473 Y124.53953
X215.87473 Y124.51413
X215.87473 Y124.48873
X215.87473 Y124.46333
X215.87473 Y124.43793
X215.87473 Y124.41253
X215.87473 Y124.38713
X215.87473 Y124.36173
X215.87473 Y124.33633
X215.87473 Y124.31093
X215.87473 Y124.28553
X215.87473 Y124.26013
X215.87473 Y124.23473
X215.87473 Y124.20933
X215.87473 Y124.18393
X215.87473 Y124.15853
X215.87473 Y124.13313
X215.87473 Y124.10773
X215.87473 Y124.08233
X215.87473 Y124.05693
X215.87473 Y124.03153
X215.87473 Y124.00613
X215.87473 Y123.98073
X215.87473 Y123.95533
X215.87473 Y123.92993
X215.87473 Y123.90453
X215.87473 Y123.87913
X215.87473 Y123.85373
X215.87473 Y123.82833
X215.87473 Y123.80293
X215.87473 Y123.77753
X215.87473 Y123.75213
X215.87473 Y123.72673
X215.87473 Y123.70133
X215.87473 Y123.67593
X215.87473 Y123.65053
X215.87473 Y123.62513
X215.87473 Y123.59973
X215.87473 Y123.57433
X215.87473 Y123.54893
X215.87473 Y123.52353
X215.87473 Y123.49813
X215.87473 Y123.47273
X215.87473 Y123.44733
X215.87473 Y123.42193
X215.87473 Y123.39653
X215.87473 Y123.37113
X215.87473 Y123.34573
X215.87473 Y123.32033
X215.87473 Y123.29493
X215.87473 Y123.26953
X215.87473 Y123.24413
X215.87473 Y123.21873
X215.87473 Y123.19333
X215.87473 Y123.16793
X215.87473 Y123.14253
X215.87473 Y123.11713
X215.87473 Y123.09173
X215.87473 Y123.06633
X215.87473 Y123.04093
X215.87473 Y123.01553
X215.87473 Y122.99013
X215.87473 Y122.96473
X215.87473 Y122.93933
X215.87473 Y122.91393
X215.87473 Y122.88853
X215.87473 Y122.86313
X215.87473 Y122.83773
X215.87473 Y122.81233
X215.87473 Y122.78693
X215.87473 Y122.76153
X215.87473 Y122.73613
X215.87473 Y122.71073
X215.87473 Y122.68533
X215.87473 Y122.65993
X215.87473 Y122.63453
X215.87473 Y122.60913
X215.87473 Y122.58373
X215.87473 Y122.55833
X215.87473 Y122.53293
X215.87473 Y122.50753
X215.87473 Y122.48213
X215.87473 Y122.45673
X215.87473 Y122.43133
X215.87473 Y122.40593
X215.87473 Y122.38053
X215.87473 Y122.35513
X215.87473 Y122.32973
X215.87473 Y122.30433
X215.87473 Y122.27893
X215.87473 Y122.25353
X215.87473 Y122.22813
X215.87473 Y122.20273
X215.87473 Y122.17733
X215.87473 Y122.15193
X215.87473 Y122.12653
X215.87473 Y122.10113
X215.87473 Y122.07573
X215.87473 Y122.05033
X215.87473 Y122.02493
X215.87473 Y121.99953
X215.87473 Y121.97413
X215.87473 Y121.94873
X215.87473 Y121.92333
X215.87473 Y121.89793
X215.87473 Y121.87253
X215.87473 Y121.84713
X215.87473 Y121.82173
X215.87473 Y121.79633
X215.87473 Y121.77093
X215.87473 Y121.74553
X215.87473 Y121.72013
X215.87473 Y121.69473
X215.87473 Y121.66933
X215.87473 Y121.64393
X215.87473 Y121.61853
X215.87473 Y121.59313
X215.87473 Y121.56773
X215.87473 Y121.54233
X215.87473 Y121.51693
X215.87473 Y121.49153
X215.87473 Y121.46613
X215.87473 Y121.44073
X215.87473 Y121.41533
X215.87473 Y121.38993
X215.87473 Y121.36453
X215.87473 Y121.33913
X215.87473 Y121.31373
X215.87473 Y121.28833
X215.87473 Y121.26293
X215.87473 Y121.23753
X215.87473 Y121.21213
X215.87473 Y121.18673
X215.87473 Y121.16133
X215.87473 Y121.13593
X215.87473 Y121.11053
X215.87473 Y121.08513
X215.87473 Y121.05973
X215.87473 Y121.03433
X215.87473 Y121.00893
X215.87473 Y120.98353
X215.87473 Y120.95813
X215.87473 Y120.93273
X215.87473 Y120.90733
X215.87473 Y120.88193
X215.87473 Y120.85653
X215.87473 Y120.83113
X215.87473 Y120.80573
X215.87473 Y120.78033
X215.87473 Y120.75493
X215.87473 Y120.72953
X215.87473 Y120.70413
X215.87473 Y120.67873
X215.87473 Y120.65333
X215.87473 Y120.62793
X215.87473 Y120.60253
X215.87473 Y120.57713
X215.87473 Y120.55173
X215.87473 Y120.52633
X215.87473 Y120.50093
X215.87473 Y120.47553
X215.87473 Y120.45013
X215.87473 Y120.42473
X215.87473 Y120.39933
X215.87473 Y120.37393
X215.87473 Y120.34853
X215.87473 Y120.32313
X215.87473 Y120.29773
X215.87473 Y120.27233
X215.87473 Y120.24693
X215.87473 Y120.22153
X215.87473 Y120.19613
X215.87473 Y120.17073
X215.87473 Y120.14533
X215.87473 Y120.11993
X215.87473 Y120.09453
X215.87473 Y120.06913
X215.87473 Y120.04373
X215.87473 Y120.01833
X215.87473 Y119.99293
X215.87473 Y119.96753
X215.87473 Y119.94213
X215.87473 Y119.91673
X215.87473 Y119.89133
X215.87473 Y119.86593
X215.87473 Y119.84053
X215.87473 Y119.81513
X215.87473 Y119.78973
X215.87473 Y119.76433
X215.87473 Y119.73893
X215.87473 Y119.71353
X215.87473 Y119.68813
X215.87473 Y119.66273
X215.87473 Y119.63733
X215.87473 Y119.61193
X215.87473 Y119.58653
X215.87473 Y119.56113
X215.87473 Y119.53573
X215.87473 Y119.51033
X215.87473 Y119.48493
X215.87473 Y119.45953
X215.87473 Y119.43413
X215.87473 Y119.40873
X215.87473 Y119.38333
X215.87473 Y119.35793
X215.87473 Y119.33253
X215.87473 Y119.30713
X215.87473 Y119.28173
X215.87473 Y119.25633
X215.87473 Y119.23093
X215.87473 Y119.20553
X215.87473 Y119.18013
X215.87473 Y119.15473
X215.87473 Y119.12933
X215.87473 Y119.10393
X215.87473 Y119.07853
X215.87473 Y119.05313
X215.87473 Y119.02773
X215.87473 Y119.00233
X215.87473 Y118.97693
X215.87473 Y118.95153
X215.87473 Y118.92613
X215.87473 Y118.90073
X215.87473 Y118.87533
X215.87473 Y118.84993
X215.87473 Y118.82453
X215.87473 Y118.79913
X215.87473 Y118.77373
X215.87473 Y118.74833
X215.87473 Y118.72293
X215.87473 Y118.69753
X215.87473 Y118.67213
X215.87473 Y118.64673
X215.87473 Y118.62133
X215.87473 Y118.59593
X215.87473 Y118.57053
X215.87473 Y118.54513
X215.87473 Y118.51973
X215.87473 Y118.49433
X215.87473 Y118.46893
X215.87473 Y118.44353
X215.87473 Y118.41813
X215.87473 Y118.39273
X215.87473 Y118.36733
X215.87473 Y118.34193
X215.87473 Y118.31653
X215.87473 Y118.29113
X215.87473 Y118.26573
X215.87473 Y118.24033
X215.87473 Y118.21493
X215.87473 Y118.18953
X215.87473 Y118.16413
X215.87473 Y118.13873
X215.87473 Y118.11333
X215.87473 Y118.08793
X215.87473 Y118.06253
X215.87473 Y118.03713
X215.87473 Y118.01173
X215.87473 Y117.98633
X215.87473 Y117.96093
X215.87473 Y117.93553
X215.87473 Y117.91013
X215.87473 Y117.88473
X215.87473 Y117.85933
X215.87473 Y117.83393
X215.87473 Y117.80853
X215.87473 Y117.78313
X215.87473 Y117.75773
X215.87473 Y117.73233
X215.87473 Y117.70693
X215.87473 Y117.68153
X215.87473 Y117.65613
X215.87473 Y117.63073
X215.87473 Y117.60533
X215.87473 Y117.57993
X215.87473 Y117.55453
X215.87473 Y117.52913
X215.87473 Y117.50373
X215.87473 Y117.47833
X215.87473 Y117.45293
X215.87473 Y117.42753
X215.87473 Y117.40213
X215.87473 Y117.37673
X215.87473 Y117.35133
X215.87473 Y117.32593
X215.87473 Y117.30053
X215.87473 Y117.27513
X215.87473 Y117.24973
X215.87473 Y117.22433
X215.87473 Y117.19893
X215.87473 Y117.17353
X215.87473 Y117.14813
X215.87473 Y117.12273
X215.87473 Y117.09733
X215.87473 Y117.07193
X215.87473 Y117.04653
X215.87473 Y117.02113
X215.87473 Y116.99573
X215.87473 Y116.97033
X215.87473 Y116.94493
X215.87473 Y116.91953
X215.87473 Y116.89413
X215.87473 Y116.86873
X215.87473 Y116.84333
X215.87473 Y116.81793
X215.87473 Y116.79253
X215.87473 Y116.76713
X215.87473 Y116.74173
X215.87473 Y116.71633
X215.87473 Y116.69093
X215.87473 Y116.66553
X215.87473 Y116.64013
X215.87473 Y116.61473
X215.87473 Y116.58933
X215.87473 Y116.56393
X215.87473 Y116.53853
X215.87473 Y116.51313
X215.87473 Y116.48773
X215.87473 Y116.46233
X215.87473 Y116.43693
X215.87473 Y116.41153
X215.87473 Y116.38613
X215.87473 Y116.36073
X215.87473 Y116.33533
X215.87473 Y116.30993
X215.87473 Y116.28453
X215.87473 Y116.25913
X215.87473 Y116.23373
X215.87473 Y116.20833
X215.87473 Y116.18293
X215.87473 Y116.15753
X215.87473 Y116.13213
X215.87473 Y116.10673
X215.87473 Y116.08133
X215.87473 Y116.05593
X215.87473 Y116.03053
X215.87473 Y116.00513
X215.87473 Y115.97973
X215.87473 Y115.95433
X215.87473 Y115.92893
X215.87473 Y115.90353
X215.87473 Y115.87813
X215.87473 Y115.85273
X215.87473 Y115.82733
X215.87473 Y115.80193
X215.87473 Y115.77653
X215.87473 Y115.75113
X215.87473 Y115.72573
X215.87473 Y115.70033
X215.87473 Y115.67493
X215.87473 Y115.64953
X215.87473 Y115.62413
X215.87473 Y115.59873
X215.87473 Y115.57333
X215.87473 Y115.54793
X215.87473 Y115.52253
X215.87473 Y115.49713
X215.87473 Y115.47173
X215.87473 Y115.44633
X215.87473 Y115.42093
X215.87473 Y115.39553
X215.87473 Y115.37013
X215.87473 Y115.34473
X215.87473 Y115.31933
X215.87473 Y115.29393
X215.87473 Y115.26853
X215.87473 Y115.24313
X215.87473 Y115.21773
X215.87473 Y115.19233
X215.87473 Y115.16693
X215.87473 Y115.14153
X215.87473 Y115.11613
X215.87473 Y115.09073
X215.87473 Y115.06533
X215.87473 Y115.03993
X215.87473 Y115.01453
X215.87473 Y114.98913
X215.87473 Y114.96373
X215.87473 Y114.93833
X215.87473 Y114.91293
X215.87473 Y114.88753
X215.87473 Y114.86213
X215.87473 Y114.83673
X215.87473 Y114.81133
X215.87473 Y114.78593
X215.87473 Y114.76053
X215.87473 Y114.73513
X215.87473 Y114.70973
X215.87473 Y114.68433
X215.87473 Y114.65893
X215.87473 Y114.63353
X215.87473 Y114.60813
X215.87473 Y114.58273
X215.87473 Y114.55733
X215.87473 Y114.53193
X215.87473 Y114.50653
X215.87473 Y114.48113
X215.87473 Y114.45573
X215.87473 Y114.43033
X215.87473 Y114.40493
X215.87473 Y114.37953
X215.87473 Y114.35413
X215.87473 Y114.32873
X215.87473 Y114.30333
X215.87473 Y114.27793
X215.87473 Y114.25253
X215.87473 Y114.22713
X215.87473 Y114.20173
X215.87473 Y114.17633
X215.87473 Y114.15093
X215.87473 Y114.12553
X215.87473 Y114.10013
X215.87473 Y114.07473
X215.87473 Y114.04933
X215.87473 Y114.02393
X215.87473 Y113.99853
X215.87473 Y113.97313
X215.87473 Y113.94773
X215.87473 Y113.92233
X215.87473 Y113.89693
X215.87473 Y113.87153
X215.87473 Y113.84613
X215.87473 Y113.82073
X215.87473 Y113.79533
X215.87473 Y113.76993
X215.87473 Y113.74453
X215.87473 Y113.71913
X215.87473 Y113.69373
X215.87473 Y113.66833
X215.87473 Y113.64293
X215.87473 Y113.61753
X215.87473 Y113.59213
X215.87473 Y113.56673
X215.87473 Y113.54133
X215.87473 Y113.51593
X215.87473 Y113.49053
X215.87473 Y113.46513
X215.87473 Y113.43973
X215.87473 Y113.41433
X215.87473 Y113.38893
X215.87473 Y113.36353
X215.87473 Y113.33813
X215.87473 Y113.31273
X215.87473 Y113.28733
X215.87473 Y113.26193
X215.87473 Y113.23653
X215.87473 Y113.21113
X215.87473 Y113.18573
X215.87473 Y113.16033
X215.87473 Y113.13493
X215.87473 Y113.10953
X215.87473 Y113.08413
X215.87473 Y113.05873
X215.87473 Y113.03333
X215.87473 Y113.00793
X215.87473 Y112.98253
X215.87473 Y112.95713
X215.87473 Y112.93173
X215.87473 Y112.90633
X215.87473 Y112.88093
X215.87473 Y112.85553
X215.87473 Y112.83013
X215.87473 Y112.80473
X215.87473 Y112.77933
X215.87473 Y112.75393
X215.87473 Y112.72853
X215.87473 Y112.70313
X215.87473 Y112.67773
X215.87473 Y112.65233
X215.87473 Y112.62693
X215.87473 Y112.60153
X215.87473 Y112.57613
X215.87473 Y112.55073
X215.87473 Y112.52533
X215.87473 Y112.49993
X215.87473 Y112.47453
X215.87473 Y112.44913
X215.87473 Y112.42373
X215.87473 Y112.39833
X215.87473 Y112.37293
X215.87473 Y112.34753
X215.87473 Y112.32213
X215.87473 Y112.29673
X215.87473 Y112.27133
X215.87473 Y112.24593
X215.87473 Y112.22053
X215.87473 Y112.19513
X215.87473 Y112.16973
X215.87473 Y112.14433
X215.87473 Y112.11893
X215.87473 Y112.09353
X215.87473 Y112.06813
X215.87473 Y112.04273
X215.87473 Y112.01733
X215.87473 Y111.99193
X215.87473 Y111.96653
X215.87473 Y111.94113
X215.87473 Y111.91573
X215.87473 Y111.89033
X215.87473 Y111.86493
X215.87473 Y111.83953
X215.87473 Y111.81413
X215.87473 Y111.78873
X215.87473 Y111.76333
X215.87473 Y111.73793
X215.87473 Y111.71253
X215.87473 Y111.68713
X215.87473 Y111.66173
X215.87473 Y111.63633
X215.87473 Y111.61093
X215.87473 Y111.58553
X215.87473 Y111.56013
X215.87473 Y111.53473
X215.87473 Y111.50933
X215.87473 Y111.48393
X215.87473 Y111.45853
X215.87473 Y111.43313
X215.87473 Y111.40773
X215.87473 Y111.38233
X215.87473 Y111.35693
X215.87473 Y111.33153
X215.87473 Y111.30613
X215.87473 Y111.28073
X215.87473 Y111.25533
X215.87473 Y111.22993
X215.87473 Y111.20453
X215.87473 Y111.17913
X215.87473 Y111.15373
X215.87473 Y111.12833
X215.87473 Y111.10293
X215.87473 Y111.07753
X215.87473 Y111.05213
X215.87473 Y111.02673
X215.87473 Y111.00133
X215.87473 Y110.97593
X215.87473 Y110.95053
X215.87473 Y110.92513
X215.87473 Y110.89973
X215.87473 Y110.87433
X215.87473 Y110.84893
X215.87473 Y110.82353
X215.87473 Y110.79813
X215.87473 Y110.77273
X215.87473 Y110.74733
X215.87473 Y110.72193
X215.87473 Y110.69653
X215.87473 Y110.67113
X215.87473 Y110.64573
X215.87473 Y110.62033
X215.87473 Y110.59493
X215.87473 Y110.56953
X215.87473 Y110.54413
X215.87473 Y110.51873
X215.87473 Y110.49333
X215.87473 Y110.46793
X215.87473 Y110.44253
X215.87473 Y110.41713
X215.87473 Y110.39173
X215.87473 Y110.36633
X215.87473 Y110.34093
X215.87473 Y110.31553
X215.87473 Y110.29013
X215.87473 Y110.26473
X215.87473 Y110.23933
X215.87473 Y110.21393
X215.87473 Y110.18853
X215.87473 Y110.16313
X215.87473 Y110.13773
X215.87473 Y110.11233
X215.87473 Y110.08693
X215.87473 Y110.06153
X215.87473 Y110.03613
X215.87473 Y110.01073
X215.87473 Y109.98533
X215.87473 Y109.95993
X215.87473 Y109.93453
X215.87473 Y109.90913
X215.87473 Y109.88373
X215.87473 Y109.85833
X215.87473 Y109.83293
X215.87473 Y109.80753
X215.87473 Y109.78213
X215.87473 Y109.75673
X215.87473 Y109.73133
X215.87473 Y109.70593
X215.87473 Y109.68053
X215.87473 Y109.65513
X215.87473 Y109.62973
X215.87473 Y109.60433
X215.87473 Y109.57893
X215.87473 Y109.55353
X215.87473 Y109.52813
X215.87473 Y109.50273
X215.87473 Y109.47733
X215.87473 Y109.45193
X215.87473 Y109.42653
X215.87473 Y109.40113
X215.87473 Y109.37573
X215.87473 Y109.35033
X215.87473 Y109.32493
X215.87473 Y109.29953
X215.87473 Y109.27413
X215.87473 Y109.24873
X215.87473 Y109.22333
X215.87473 Y109.19793
X215.87473 Y109.17253
X215.87473 Y109.14713
X215.87473 Y109.12173
X215.87473 Y109.09633
X215.87473 Y109.07093
X215.87473 Y109.04553
X215.87473 Y109.02013
X215.87473 Y108.99473
X215.87473 Y108.96933
X215.87473 Y108.94393
X215.87473 Y108.91853
X215.87473 Y108.89313
X215.87473 Y108.86773
X215.87473 Y108.84233
X215.87473 Y108.81693
X215.87473 Y108.79153
X215.87473 Y108.76613
X215.87473 Y108.74073
X215.87473 Y108.71533
X215.87473 Y108.68993
X215.87473 Y108.66453
X215.87473 Y108.63913
X215.87473 Y108.61373
X215.87473 Y108.58833
X215.87473 Y108.56293
X215.87473 Y108.53753
X215.87473 Y108.51213
X215.87473 Y108.48673
X215.87473 Y108.46133
X215.87473 Y108.43593
X215.87473 Y108.41053
X215.87473 Y108.38513
X215.87473 Y108.35973
X215.87473 Y108.33433
X215.87473 Y108.30893
X215.87473 Y108.28353
X215.87473 Y108.25813
X215.87473 Y108.23273
X215.87473 Y108.20733
X215.87473 Y108.18193
X215.87473 Y108.15653
X215.87473 Y108.13113
X215.87473 Y108.10573
X215.87473 Y108.08033
X215.87473 Y108.05493
X215.87473 Y108.02953
X215.87473 Y108.00413
X215.87473 Y107.97873
X215.87473 Y107.95333
X215.87473 Y107.92793
X215.87473 Y107.90253
X215.87473 Y107.87713
X215.87473 Y107.85173
X215.87473 Y107.82633
X215.87473 Y107.80093
X215.87473 Y107.77553
X215.87473 Y107.75013
X215.87473 Y107.72473
X215.87473 Y107.69933
X215.87473 Y107.67393
X215.87473 Y107.64853
X215.87473 Y107.62313
X215.87473 Y107.59773
X215.87473 Y107.57233
X215.87473 Y107.54693
X215.87473 Y107.52153
X215.87473 Y107.49613
X215.87473 Y107.47073
X215.87473 Y107.44533
X215.87473 Y107.41993
X215.87473 Y107.39453
X215.87473 Y107.36913
X215.87473 Y107.34373
X215.87473 Y107.31833
X215.87473 Y107.29293
X215.87473 Y107.26753
X215.87473 Y107.24213
X215.87473 Y107.21673
X215.87473 Y107.19133
X215.87473 Y107.16593
X215.87473 Y107.14053
X215.87473 Y107.11513
X215.87473 Y107.08973
X215.87473 Y107.06433
X215.87473 Y107.03893
X215.87473 Y107.01353
X215.87473 Y106.98813
X215.87473 Y106.96273
X215.87473 Y106.93733
X215.87473 Y106.91193
X215.87473 Y106.88653
X215.87473 Y106.86113
X215.87473 Y106.83573
X215.87473 Y106.81033
X215.87473 Y106.78493
X215.87473 Y106.75953
X215.87473 Y106.73413
X215.87473 Y106.70873
X215.87473 Y106.68333
X215.87473 Y106.65793
X215.87473 Y106.63253
X215.87473 Y106.60713
X215.87473 Y106.58173
X215.87473 Y106.55633
X215.87473 Y106.53093
X215.87473 Y106.50553
X215.87473 Y106.48013
X215.87473 Y106.45473
X215.87473 Y106.42933
X215.87473 Y106.40393
X215.87473 Y106.37853
X215.87473 Y106.35313
X215.87473 Y106.32773
X215.87473 Y106.30233
X215.87473 Y106.27693
X215.87473 Y106.25153
X215.87473 Y106.22613
X215.87473 Y106.20073
X215.87473 Y106.17533
X215.87473 Y106.14993
X215.87473 Y106.12453
X215.87473 Y106.09913
X215.87473 Y106.07373
X215.87473 Y106.04833
X215.87473 Y106.02293
X215.87473 Y105.99753
X215.87473 Y105.97213
X215.87473 Y105.94673
X215.87473 Y105.92133
X215.87473 Y105.89593
X215.87473 Y105.87053
X215.87473 Y105.84513
X215.87473 Y105.81973
X215.87473 Y105.79433
X215.87473 Y105.76893
X215.87473 Y105.74353
X215.87473 Y105.71813
X215.87473 Y105.69273
X215.87473 Y105.66733
X215.87473 Y105.64193
X215.87473 Y105.61653
X215.87473 Y105.59113
X215.87473 Y105.56573
X215.87473 Y105.54033
X215.87473 Y105.51493
X215.87473 Y105.48953
X215.87473 Y105.46413
X215.87473 Y105.43873
X215.87473 Y105.41333
X215.87473 Y105.38793
X215.87473 Y105.36253
X215.87473 Y105.33713
X215.87473 Y105.31173
X215.87473 Y105.28633
X215.87473 Y105.26093
X215.87473 Y105.23553
X215.87473 Y105.21013
X215.87473 Y105.18473
X215.87473 Y105.15933
X215.87473 Y105.13393
X215.87473 Y105.10853
X215.87473 Y105.08313
X215.87473 Y105.05773
X215.87473 Y105.03233
X215.87473 Y105.00693
X215.87473 Y104.98153
X215.87473 Y104.95613
X215.87473 Y104.93073
X215.87473 Y104.90533
X215.87473 Y104.87993
X215.87473 Y104.85453
X215.87473 Y104.82913
X215.87473 Y104.80373
X215.87473 Y104.77833
X215.87473 Y104.75293
X215.87473 Y104.72753
X215.87473 Y104.70213
X215.87473 Y104.67673
X215.87473 Y104.65133
X215.87473 Y104.62593
X215.87473 Y104.60053
X215.87473 Y104.57513
X215.87473 Y104.54973
X215.87473 Y104.52433
X215.87473 Y104.49893
X215.87473 Y104.47353
X215.87473 Y104.44813
X215.87473 Y104.42273
X215.87473 Y104.39733
X215.87473 Y104.37193
X215.87473 Y104.34653
X215.87473 Y104.32113
X215.87473 Y104.29573
X215.87473 Y104.27033
X215.87473 Y104.24493
X215.87473 Y104.21953
X215.87473 Y104.19413
X215.87473 Y104.16873
X215.87473 Y104.14333
X215.87473 Y104.11793
X215.87473 Y104.09253
X215.87473 Y104.06713
X215.87473 Y104.04173
X215.87473 Y104.01633
X215.87473 Y103.99093
X215.87473 Y103.96553
X215.87473 Y103.94013
X215.87473 Y103.91473
X215.87473 Y103.88933
X215.87473 Y103.86393
X215.87473 Y103.83853
X215.87473 Y103.81313
X215.87473 Y103.78773
X215.87473 Y103.76233
X215.87473 Y103.73693
X215.87473 Y103.71153
X215.87473 Y103.68613
X215.87473 Y103.66073
X215.87473 Y103.63533
X215.87473 Y103.60993
X215.87473 Y103.58453
X215.87473 Y103.55913
X215.87473 Y103.53373
X215.87473 Y103.50833
X215.87473 Y103.48293
X215.87473 Y103.45753
X215.87473 Y103.43213
X215.87473 Y103.40673
X215.87473 Y103.38133
X215.87473 Y103.35593
X215.87473 Y103.33053
X215.87473 Y103.30513
X215.87473 Y103.27973
X215.87473 Y103.25433
X215.87473 Y103.22893
X215.87473 Y103.20353
X215.87473 Y103.17813
X215.87473 Y103.15273
X215.87473 Y103.12733
X215.87473 Y103.10193
X215.87473 Y103.07653
X215.87473 Y103.05113
X215.87473 Y103.02573
X215.87473 Y103.00033
X215.87473 Y102.97493
X215.87473 Y102.94953
X215.87473 Y102.92413
X215.87473 Y102.89873
X215.87473 Y102.87333
X215.87473 Y102.84793
X215.87473 Y102.82253
X215.87473 Y102.79713
X215.87473 Y102.77173
X215.87473 Y102.74633
X215.87473 Y102.72093
X215.87473 Y102.69553
X215.87473 Y102.67013
X215.87473 Y102.64473
X215.87473 Y102.61933
X215.87473 Y102.59393
X215.87473 Y102.56853
X215.87473 Y102.54313
X215.87473 Y102.51773
X215.87473 Y102.49233
X215.87473 Y102.46693
X215.87473 Y102.44153
X215.87473 Y102.41613
X215.87473 Y102.39073
X215.87473 Y102.36533
X215.87473 Y102.33993
X215.87473 Y102.31453
X215.87473 Y102.28913
X215.87473 Y102.26373
X215.87473 Y102.23833
X215.87473 Y102.21293
X215.87473 Y102.18753
X215.87473 Y102.16213
X215.87473 Y102.13673
X215.87473 Y102.11133
X215.87473 Y102.08593
X215.87473 Y102.06053
X215.87473 Y102.03513
X215.87473 Y102.00973
X215.87473 Y101.98433
X215.87473 Y101.95893
X215.87473 Y101.93353
X215.87473 Y101.90813
X215.87473 Y101.88273
X215.87473 Y101.85733
X215.87473 Y101.83193
X215.87473 Y101.80653
X215.87473 Y101.78113
X215.87473 Y101.75573
X215.87473 Y101.73033
X215.87473 Y101.70493
X215.87473 Y101.67953
X215.87473 Y101.65413
X215.87473 Y101.62873
X215.87473 Y101.60333
X215.87473 Y101.57793
X215.87473 Y101.55253
X215.87473 Y101.52713
X215.87473 Y101.50173
X215.87473 Y101.47633
X215.87473 Y101.45093
X215.87473 Y101.42553
X215.87473 Y101.40013
X215.87473 Y101.37473
X215.87473 Y101.34933
X215.87473 Y101.32393
X215.87473 Y101.29853
X215.87473 Y101.27313
X215.87473 Y101.24773
X215.87473 Y101.22233
X215.87473 Y101.19693
X215.87473 Y101.17153
X215.87473 Y101.14613
X215.87473 Y101.12073
X215.87473 Y101.09533
X215.87473 Y101.06993
X215.87473 Y101.04453
X215.87473 Y101.01913
X215.87473 Y100.99373
X215.87473 Y100.96833
X215.87473 Y100.94293
X215.87473 Y100.91753
X215.87473 Y100.89213
X215.87473 Y100.86673
X215.87473 Y100.84133
X215.87473 Y100.81593
X215.87473 Y100.79053
X215.87473 Y100.76513
X215.87473 Y100.73973
X215.87473 Y100.71433
X215.87473 Y100.68893
X215.87473 Y100.66353
X215.87473 Y100.63813
X215.87473 Y100.61273
X215.87473 Y100.58733
X215.87473 Y100.56193
X215.87473 Y100.53653
X215.87473 Y100.51113
X215.87473 Y100.48573
X215.87473 Y100.46033
X215.87473 Y100.43493
X215.87473 Y100.40953
X215.87473 Y100.38413
X215.87473 Y100.35873
X215.87473 Y100.33333
X215.87473 Y100.30793
X215.87473 Y100.28253
X215.87473 Y100.25713
X215.87473 Y100.23173
X215.87473 Y100.20633
X215.87473 Y100.18093
X215.87473 Y100.15553
X215.87473 Y100.13013
X215.87473 Y100.10473
X215.87473 Y100.07933
X215.87473 Y100.05393
X215.87473 Y100.02853
X215.87473 Y100.00313
X215.87473 Y99.97773
X215.87473 Y99.95233
X215.87473 Y99.92693
X215.87473 Y99.90153
X215.87473 Y99.87613
X215.87473 Y99.85073
X215.87473 Y99.82533
X215.87473 Y99.79993
X215.87473 Y99.77453
X215.87473 Y99.74913
X215.87473 Y99.72373
X215.87473 Y99.69833
X215.87473 Y99.67293
X215.87473 Y99.64753
X215.87473 Y99.62213
X215.87473 Y99.59673
X215.87473 Y99.57133
X215.87473 Y99.54593
X215.87473 Y99.52053
X215.87473 Y99.49513
X215.87473 Y99.46973
X215.87473 Y99.44433
X215.87473 Y99.41893
X215.87473 Y99.39353
X215.87473 Y99.36813
X215.87473 Y99.34273
X215.87473 Y99.31733
X215.87473 Y99.29193
X215.87473 Y99.26653
X215.87473 Y99.24113
X215.87473 Y99.21573
X215.87473 Y99.19033
X215.87473 Y99.16493
X215.87473 Y99.13953
X215.87473 Y99.11413
X215.87473 Y99.08873
X215.87473 Y99.06333
X215.87473 Y99.03793
X215.87473 Y99.01253
X215.87473 Y98.98713
X215.87473 Y98.96173
X215.87473 Y98.93633
X215.87473 Y98.91093
X215.87473 Y98.88553
X215.87473 Y98.86013
X215.87473 Y98.83473
X215.87473 Y98.80933
X215.87473 Y98.78393
X215.87473 Y98.75853
X215.87473 Y98.73313
X215.87473 Y98.70773
X215.87473 Y98.68233
X215.87473 Y98.65693
X215.87473 Y98.63153
X215.87473 Y98.60613
X215.87473 Y98.58073
X215.87473 Y98.55533
X215.87473 Y98.52993
X215.87473 Y98.50453
X215.87473 Y98.47913
X215.87473 Y98.45373
X215.87473 Y98.42833
X215.87473 Y98.40293
X215.87473 Y98.37753
X215.87473 Y98.35213
X215.87473 Y98.32673
X215.87473 Y98.30133
X215.87473 Y98.27593
X215.87473 Y98.25053
X215.87473 Y98.22513
X215.87473 Y98.19973
X215.87473 Y98.17433
X215.87473 Y98.14893
X215.87473 Y98.12353
X215.87473 Y98.09813
X215.87473 Y98.07273
X215.87473 Y98.04733
X215.87473 Y98.02193
X215.87473 Y97.99653
X215.87473 Y97.97113
X215.87473 Y97.94573
X215.87473 Y97.92033
X215.87473 Y97.89493
X215.87473 Y97.86953
X215.87473 Y97.84413
X215.87473 Y97.81873
X215.87473 Y97.79333
X215.87473 Y97.76793
X215.87473 Y97.74253
X215.87473 Y97.71713
X215.87473 Y97.69173
X215.87473 Y97.66633
X215.87473 Y97.64093
X215.87473 Y97.61553
X215.87473 Y97.59013
X215.87473 Y97.56473
X215.87473 Y97.53933
X215.87473 Y97.51393
X215.87473 Y97.48853
X215.87473 Y97.46313
X215.87473 Y97.43773
X215.87473 Y97.41233
X215.87473 Y97.38693
X215.87473 Y97.36153
X215.87473 Y97.33613
X215.87473 Y97.31073
X215.87473 Y97.28533
X215.87473 Y97.25993
X215.87473 Y97.23453
X215.87473 Y97.20913
X215.87473 Y97.18373
X215.87473 Y97.15833
X215.87473 Y97.13293
X215.87473 Y97.10753
X215.87473 Y97.08213
X215.87473 Y97.05673
X215.87473 Y97.03133
X215.87473 Y97.00593
X215.87473 Y96.98053
X215.87473 Y96.95513
X215.87473 Y96.92973
X215.87473 Y96.90433
X215.87473 Y96.87893
X215.87473 Y96.85353
X215.87473 Y96.82813
X215.87473 Y96.80273
X215.87473 Y96.77733
X215.87473 Y96.75193
X215.87473 Y96.72653
X215.87473 Y96.70113
X215.87473 Y96.67573
X215.87473 Y96.65033
X215.87473 Y96.62493
X215.87473 Y96.59953
X215.87473 Y96.57413
X215.87473 Y96.54873
X215.87473 Y96.52333
X215.87473 Y96.49793
X215.87473 Y96.47253
X215.87473 Y96.44713
X215.87473 Y96.42173
X215.87473 Y96.39633
X215.87473 Y96.37093
X215.87473 Y96.34553
X215.87473 Y96.32013
X215.87473 Y96.29473
X215.87473 Y96.26933
X215.87473 Y96.24393
X215.87473 Y96.21853
X215.87473 Y96.19313
X215.87473 Y96.16773
X215.87473 Y96.14233
X215.87473 Y96.11693
X215.87473 Y96.09153
X215.87473 Y96.06613
X215.87473 Y96.04073
X215.87473 Y96.01533
X215.87473 Y95.98993
X215.87473 Y95.96453
X215.87473 Y95.93913
X215.87473 Y95.91373
X215.87473 Y95.88833
X215.87473 Y95.86293
X215.87473 Y95.83753
X215.87473 Y95.81213
X215.87473 Y95.78673
X215.87473 Y95.76133
X215.87473 Y95.73593
X215.87473 Y95.71053
X215.87473 Y95.68513
X215.87473 Y95.65973
X215.87473 Y95.63433
X215.87473 Y95.60893
X215.87473 Y95.58353
X215.87473 Y95.55813
X215.87473 Y95.53273
X215.87473 Y95.50733
X215.87473 Y95.48193
X215.87473 Y95.45653
X215.87473 Y95.43113
X215.87473 Y95.40573
X215.87473 Y95.38033
X215.87473 Y95.35493
X215.87473 Y95.32953
X215.87473 Y95.30413
X215.87473 Y95.27873
X215.87473 Y95.25333
X215.87473 Y95.22793
X215.87473 Y95.20253
X215.87473 Y95.17713
X215.87473 Y95.15173
X215.87473 Y95.12633
X215.87473 Y95.10093
X215.87473 Y95.07553
X215.87473 Y95.05013
X215.87473 Y95.02473
X215.87473 Y94.99933
X215.87473 Y94.97393
X215.87473 Y94.94853
X215.87473 Y94.92313
X215.87473 Y94.89773
X215.87473 Y94.87233
X215.87473 Y94.84693
X215.87473 Y94.82153
X215.87473 Y94.79613
X215.87473 Y94.77073
X215.87473 Y94.74533
X215.87473 Y94.71993
X215.87473 Y94.69453
X215.87473 Y94.66913
X215.87473 Y94.64373
X215.87473 Y94.61833
X215.87473 Y94.59293
X215.87473 Y94.56753
X215.87473 Y94.54213
X215.87473 Y94.51673
X215.87473 Y94.49133
X215.87473 Y94.46593
X215.87473 Y94.44053
X215.87473 Y94.41513
X215.87473 Y94.38973
X215.87473 Y94.36433
X215.87473 Y94.33893
X215.87473 Y94.31353
X215.87473 Y94.28813
X215.87473 Y94.26273
X215.87473 Y94.23733
X215.87473 Y94.21193
X215.87473 Y94.18653
X215.87473 Y94.16113
X215.87473 Y94.13573
X215.87473 Y94.11033
X215.87473 Y94.08493
X215.87473 Y94.05953
X215.87473 Y94.03413
X215.87473 Y94.00873
X215.87473 Y93.98333
X215.87473 Y93.95793
X215.87473 Y93.93253
X215.87473 Y93.90713
X215.87473 Y93.88173
X215.87473 Y93.85633
X215.87473 Y93.83093
X215.87473 Y93.80553
X215.87473 Y93.78013
X215.87473 Y93.75473
X215.87473 Y93.72933
X215.87473 Y93.70393
X215.87473 Y93.67853
X215.87473 Y93.65313
X215.87473 Y93.62773
X215.87473 Y93.60233
X215.87473 Y93.57693
X215.87473 Y93.55153
X215.87473 Y93.52613
X215.87473 Y93.50073
X215.87473 Y93.47533
X215.87473 Y93.44993
X215.87473 Y93.42453
X215.87473 Y93.39913
X215.87473 Y93.37373
X215.87473 Y93.34833
X215.87473 Y93.32293
X215.87473 Y93.29753
X215.87473 Y93.27213
X215.87473 Y93.24673
X215.87473 Y93.22133
X215.87473 Y93.19593
X215.87473 Y93.17053
X215.87473 Y93.14513
X215.87473 Y93.11973
X215.87473 Y93.09433
X215.87473 Y93.06893
X215.87473 Y93.04353
X215.87473 Y93.01813
X215.87473 Y92.99273
X215.87473 Y92.96733
X215.87473 Y92.94193
X215.87473 Y92.91653
X215.87473 Y92.89113
X215.87473 Y92.86573
X215.87473 Y92.84033
X215.87473 Y92.81493
X215.87473 Y92.78953
X215.87473 Y92.76413
X215.87473 Y92.73873
X215.87473 Y92.71333
X215.87473 Y92.68793
X215.87473 Y92.66253
X215.87473 Y92.63713
X215.87473 Y92.61173
X215.87473 Y92.58633
X215.87473 Y92.56093
X215.87473 Y92.53553
X215.87473 Y92.51013
X215.87473 Y92.48473
X215.87473 Y92.45933
X215.87473 Y92.43393
X215.87473 Y92.40853
X215.87473 Y92.38313
X215.87473 Y92.35773
X215.87473 Y92.33233
X215.87473 Y92.30693
X215.87473 Y92.28153
X215.87473 Y92.25613
X215.87473 Y92.23073
X215.87473 Y92.20533
X215.87473 Y92.17993
X215.87473 Y92.15453
X215.87473 Y92.12913
X215.87473 Y92.10373
X215.87473 Y92.07833
X215.87473 Y92.05293
X215.87473 Y92.02753
X215.87473 Y92.00213
X215.87473 Y91.97673
X215.87473 Y91.95133
X215.87473 Y91.92593
X215.87473 Y91.90053
X215.87473 Y91.87513
X215.87473 Y91.84973
X215.87473 Y91.82433
X215.87473 Y91.79893
X215.87473 Y91.77353
X215.87473 Y91.74813
X215.87473 Y91.72273
X215.87473 Y91.69733
X215.87473 Y91.67193
X215.87473 Y91.64653
X215.87473 Y91.62113
X215.87473 Y91.59573
X215.87473 Y91.57033
X215.87473 Y91.54493
X215.87473 Y91.51953
X215.87473 Y91.49413
X215.87473 Y91.46873
X215.87473 Y91.44333
X215.87473 Y91.41793
X215.87473 Y91.39253
X215.87473 Y91.36713
X215.87473 Y91.34173
X215.87473 Y91.31633
X215.87473 Y91.29093
X215.87473 Y91.26553
X215.87473 Y91.24013
X215.87473 Y91.21473
X215.87473 Y91.18933
X215.87473 Y91.16393
X215.87473 Y91.13853
X215.87473 Y91.11313
X215.87473 Y91.08773
X215.87473 Y91.06233
X215.87473 Y91.03693
X215.87473 Y91.01153
X215.87473 Y90.98613
X215.87473 Y90.96073
X215.87473 Y90.93533
X215.87473 Y90.90993
X215.87473 Y90.88453
X215.87473 Y90.85913
X215.87473 Y90.83373
X215.87473 Y90.80833
X215.87473 Y90.78293
X215.87473 Y90.75753
X215.87473 Y90.73213
X215.87473 Y90.70673
X215.87473 Y90.68133
X215.87473 Y90.65593
X215.87473 Y90.63053
X215.87473 Y90.60513
X215.87473 Y90.57973
X215.87473 Y90.55433
X215.87473 Y90.52893
X215.87473 Y90.50353
X215.87473 Y90.47813
X215.87473 Y90.45273
X215.87473 Y90.42733
X215.87473 Y90.40193
X215.87473 Y90.37653
X215.87473 Y90.35113
X215.87473 Y90.32573
X215.87473 Y90.30033
X215.87473 Y90.27493
X215.87473 Y90.24953
X215.87473 Y90.22413
X215.87473 Y90.19873
X215.87473 Y90.17333
X215.87473 Y90.14793
X215.87473 Y90.12253
X215.87473 Y90.09713
X215.87473 Y90.07173
X215.87473 Y90.04633
X215.87473 Y90.02093
X215.87473 Y89.99553
X215.87473 Y89.97013
X215.87473 Y89.94473
X215.87473 Y89.91933
X215.87473 Y89.89393
X215.87473 Y89.86853
X215.87473 Y89.84313
X215.87473 Y89.81773
X215.87473 Y89.79233
X215.87473 Y89.76693
X215.87473 Y89.74153
X215.87473 Y89.71613
X215.87473 Y89.69073
X215.87473 Y89.66533
X215.87473 Y89.63993
X215.87473 Y89.61453
X215.87473 Y89.58913
X215.87473 Y89.56373
X215.87473 Y89.53833
X215.87473 Y89.51293
X215.87473 Y89.48753
X215.87473 Y89.46213
X215.87473 Y89.43673
X215.87473 Y89.41133
X215.87473 Y89.38593
X215.87473 Y89.36053
X215.87473 Y89.33513
X215.87473 Y89.30973
X215.87473 Y89.28433
X215.87473 Y89.25893
X215.87473 Y89.23353
X215.87473 Y89.20813
X215.87473 Y89.18273
X215.87473 Y89.15733
X215.87473 Y89.13193
X215.87473 Y89.10653
X215.87473 Y89.08113
X215.87473 Y89.05573
X215.87473 Y89.03033
X215.87473 Y89.00493
X215.87473 Y88.97953
X215.87473 Y88.95413
X215.87473 Y88.92873
X215.87473 Y88.90333
X215.87473 Y88.87793
X215.87473 Y88.85253
X215.87473 Y88.82713
X215.87473 Y88.80173
X215.87473 Y88.77633
X215.87473 Y88.75093
X215.87473 Y88.72553
X215.87473 Y88.70013
X215.87473 Y88.67473
X215.87473 Y88.64933
X215.87473 Y88.62393
X215.87473 Y88.59853
X215.87473 Y88.57313
X215.87473 Y88.54773
X215.87473 Y88.52233
X215.87473 Y88.49693
X215.87473 Y88.47153
X215.87473 Y88.44613
X215.87473 Y88.42073
X215.87473 Y88.39533
X215.87473 Y88.36993
X215.87473 Y88.34453
X215.87473 Y88.31913
X215.87473 Y88.29373
X215.87473 Y88.26833
X215.87473 Y88.24293
X215.87473 Y88.21753
X215.87473 Y88.19213
X215.87473 Y88.16673
X215.87473 Y88.14133
X215.87473 Y88.11593
X215.87473 Y88.09053
X215.87473 Y88.06513
X215.87473 Y88.03973
X215.87473 Y88.01433
X215.87473 Y87.98893
X215.87473 Y87.96353
X215.87473 Y87.93813
X215.87473 Y87.91273
X215.87473 Y87.88733
X215.87473 Y87.86193
X215.87473 Y87.83653
X215.87473 Y87.81113
X215.87473 Y87.78573
X215.87473 Y87.76033
X215.87473 Y87.73493
X215.87473 Y87.70953
X215.87473 Y87.68413
X215.87473 Y87.65873
X215.87473 Y87.63333
X215.87473 Y87.60793
X215.87473 Y87.58253
X215.87473 Y87.55713
X215.87473 Y87.53173
X215.87473 Y87.50633
X215.87473 Y87.48093
X215.87473 Y87.45553
X215.87473 Y87.43013
X215.87473 Y87.40473
X215.87473 Y87.37933
X215.87473 Y87.35393
X215.87473 Y87.32853
X215.87473 Y87.30313
X215.87473 Y87.27773
X215.87473 Y87.25233
X215.87473 Y87.22693
X215.87473 Y87.20153
X215.87473 Y87.17613
X215.87473 Y87.15073
X215.87473 Y87.12533
X215.87473 Y87.09993
X215.87473 Y87.07453
X215.87473 Y87.04913
X215.87473 Y87.02373
X215.87473 Y86.99833
X215.87473 Y86.97293
X215.87473 Y86.94753
X215.87473 Y86.92213
X215.87473 Y86.89673
X215.87473 Y86.87133
X215.87473 Y86.84593
X215.87473 Y86.82053
X215.87473 Y86.79513
X215.87473 Y86.76973
X215.87473 Y86.74433
X215.87473 Y86.71893
X215.87473 Y86.69353
X215.87473 Y86.66813
X215.87473 Y86.64273
X215.87473 Y86.61733
X215.87473 Y86.59193
X215.87473 Y86.56653
X215.87473 Y86.54113
X215.87473 Y86.51573
X215.87473 Y86.49033
X215.87473 Y86.46493
X215.87473 Y86.43953
X215.87473 Y86.41413
X215.87473 Y86.38873
X215.87473 Y86.36333
X215.87473 Y86.33793
X215.87473 Y86.31253
X215.87473 Y86.28713
X215.87473 Y86.26173
X215.87473 Y86.23633
X215.87473 Y86.21093
X215.87473 Y86.18553
X215.87473 Y86.16013
X215.87473 Y86.13473
X215.87473 Y86.10933
X215.87473 Y86.08393
X215.87473 Y86.05853
X215.87473 Y86.03313
X215.87473 Y86.00773
X215.87473 Y85.98233
X215.87473 Y85.95693
X215.87473 Y85.93153
X215.87473 Y85.90613
X215.87473 Y85.88073
X215.87473 Y85.85533
X215.87473 Y85.82993
X215.87473 Y85.80453
X215.87473 Y85.77913
X215.87473 Y85.75373
X215.87473 Y85.72833
X215.87473 Y85.70293
X215.87473 Y85.67753
X215.87473 Y85.65213
X215.87473 Y85.62673
X215.87473 Y85.60133
X215.87473 Y85.57593
X215.87473 Y85.55053
X215.87473 Y85.52513
X215.87473 Y85.49973
X215.87473 Y85.47433
X215.87473 Y85.44893
X215.87473 Y85.42353
X215.87473 Y85.39813
X215.87473 Y85.37273
X215.87473 Y85.34733
X215.87473 Y85.32193
X215.87473 Y85.29653
X215.87473 Y85.27113
X215.87473 Y85.24573
X215.87473 Y85.22033
X215.87473 Y85.19493
X215.87473 Y85.16953
X215.87473 Y85.14413
X215.87473 Y85.11873
X215.87473 Y85.09333
X215.87473 Y85.06793
X215.87473 Y85.04253
X215.87473 Y85.01713
X215.87473 Y84.99173
X215.87473 Y84.96633
X215.87473 Y84.94093
X215.87473 Y84.91553
X215.87473 Y84.89013
X215.87473 Y84.86473
X215.87473 Y84.83933
X215.87473 Y84.81393
X215.87473 Y84.78853
X215.87473 Y84.76313
X215.87473 Y84.73773
X215.87473 Y84.71233
X215.87473 Y84.68693
X215.87473 Y84.66153
X215.87473 Y84.63613
X215.87473 Y84.61073
X215.87473 Y84.58533
X215.87473 Y84.55993
X215.87473 Y84.53453
X215.87473 Y84.50913
X215.87473 Y84.48373
X215.87473 Y84.45833
X215.87473 Y84.43293
X215.87473 Y84.40753
X215.87473 Y84.38213
X215.87473 Y84.35673
X215.87473 Y84.33133
X215.87473 Y84.30593
X215.87473 Y84.28053
X215.87473 Y84.25513
X215.87473 Y84.22973
X215.87473 Y84.20433
X215.87473 Y84.17893
X215.87473 Y84.15353
X215.87473 Y84.12813
X215.87473 Y84.10273
X215.87473 Y84.07733
X215.87473 Y84.05193
X215.87473 Y84.02653
X215.87473 Y84.00113
X215.87473 Y83.97573
X215.87473 Y83.95033
X215.87473 Y83.92493
X215.87473 Y83.89953
X215.87473 Y83.87413
X215.87473 Y83.84873
X215.87473 Y83.82333
X215.87473 Y83.79793
X215.87473 Y83.77253
X215.87473 Y83.74713
X215.87473 Y83.72173
X215.87473 Y83.69633
X215.87473 Y83.67093
X215.87473 Y83.64553
X215.87473 Y83.62013
X215.87473 Y83.59473
X215.87473 Y83.56933
X215.87473 Y83.54393
X215.87473 Y83.51853
X215.87473 Y83.49313
X215.87473 Y83.46773
X215.87473 Y83.44233
X215.87473 Y83.41693
X215.87473 Y83.39153
X215.87473 Y83.36613
X215.87473 Y83.34073
X215.87473 Y83.31533
X215.87473 Y83.28993
X215.87473 Y83.26453
X215.87473 Y83.23913
X215.87473 Y83.21373
X215.87473 Y83.18833
X215.87473 Y83.16293
X215.87473 Y83.13753
X215.87473 Y83.11213
X215.87473 Y83.08673
X215.87473 Y83.06133
